; G-Code generated by Simplify3D(R) Version 4.1.2
; Oct 30, 2021 at 2:19:15 PM
; Settings Summary
;   processName,Process1
;   applyToModels,irregular box logo 2
;   profileName,Ender 3 (modified)
;   profileVersion,2018-06-08 13:27:13
;   baseProfile,Creality CR-10 Mini
;   printMaterial,PLA
;   printQuality,Medium
;   printExtruders,
;   extruderName,Primary Extruder
;   extruderToolheadNumber,0
;   extruderDiameter,0.4
;   extruderAutoWidth,1
;   extruderWidth,0.48
;   extrusionMultiplier,1
;   extruderUseRetract,1
;   extruderRetractionDistance,5
;   extruderExtraRestartDistance,0
;   extruderRetractionZLift,1
;   extruderRetractionSpeed,1800
;   extruderUseCoasting,1
;   extruderCoastingDistance,0.2
;   extruderUseWipe,0
;   extruderWipeDistance,5
;   primaryExtruder,0
;   layerHeight,0.2
;   topSolidLayers,4
;   bottomSolidLayers,4
;   perimeterOutlines,3
;   printPerimetersInsideOut,1
;   startPointOption,3
;   startPointOriginX,0
;   startPointOriginY,110
;   sequentialIslands,0
;   spiralVaseMode,0
;   firstLayerHeightPercentage,95
;   firstLayerWidthPercentage,105
;   firstLayerUnderspeed,0.4
;   useRaft,0
;   raftExtruder,0
;   raftTopLayers,2
;   raftBaseLayers,1
;   raftOffset,3
;   raftSeparationDistance,0.14
;   raftTopInfill,100
;   aboveRaftSpeedMultiplier,0.3
;   useSkirt,1
;   skirtExtruder,0
;   skirtLayers,2
;   skirtOutlines,6
;   skirtOffset,0
;   usePrimePillar,0
;   primePillarExtruder,999
;   primePillarWidth,12
;   primePillarLocation,7
;   primePillarSpeedMultiplier,1
;   useOozeShield,0
;   oozeShieldExtruder,999
;   oozeShieldOffset,2
;   oozeShieldOutlines,1
;   oozeShieldSidewallShape,1
;   oozeShieldSidewallAngle,30
;   oozeShieldSpeedMultiplier,1
;   infillExtruder,0
;   internalInfillPattern,Rectilinear
;   externalInfillPattern,Rectilinear
;   infillPercentage,30
;   outlineOverlapPercentage,15
;   infillExtrusionWidthPercentage,100
;   minInfillLength,5
;   infillLayerInterval,1
;   internalInfillAngles,45,-45
;   overlapInternalInfillAngles,0
;   externalInfillAngles,45,-45
;   generateSupport,1
;   supportExtruder,0
;   supportInfillPercentage,15
;   supportExtraInflation,1
;   supportBaseLayers,2
;   denseSupportExtruder,0
;   denseSupportLayers,2
;   denseSupportInfillPercentage,70
;   supportLayerInterval,1
;   supportHorizontalPartOffset,0.3
;   supportUpperSeparationLayers,1
;   supportLowerSeparationLayers,1
;   supportType,0
;   supportGridSpacing,4
;   maxOverhangAngle,45
;   supportAngles,45
;   temperatureName,Primary Extruder,Heated Bed
;   temperatureNumber,0,0
;   temperatureSetpointCount,2,1
;   temperatureSetpointLayers,1,2,1
;   temperatureSetpointTemperatures,210,195,50
;   temperatureStabilizeAtStartup,1,1
;   temperatureHeatedBed,0,1
;   fanLayers,1,2
;   fanSpeeds,0,100
;   blipFanToFullPower,0
;   adjustSpeedForCooling,1
;   minSpeedLayerTime,15
;   minCoolingSpeedSlowdown,20
;   increaseFanForCooling,0
;   minFanLayerTime,45
;   maxCoolingFanSpeed,100
;   increaseFanForBridging,0
;   bridgingFanSpeed,100
;   use5D,1
;   relativeEdistances,0
;   allowEaxisZeroing,1
;   independentExtruderAxes,0
;   includeM10123,0
;   stickySupport,1
;   applyToolheadOffsets,0
;   gcodeXoffset,0
;   gcodeYoffset,0
;   gcodeZoffset,0
;   overrideMachineDefinition,1
;   machineTypeOverride,0
;   strokeXoverride,220
;   strokeYoverride,220
;   strokeZoverride,250
;   originOffsetXoverride,0
;   originOffsetYoverride,0
;   originOffsetZoverride,0
;   homeXdirOverride,-1
;   homeYdirOverride,-1
;   homeZdirOverride,-1
;   flipXoverride,1
;   flipYoverride,-1
;   flipZoverride,1
;   toolheadOffsets,0,0|0,0|0,0|0,0|0,0|0,0
;   overrideFirmwareConfiguration,1
;   firmwareTypeOverride,RepRap (Marlin/Repetier/Sprinter)
;   GPXconfigOverride,r2
;   baudRateOverride,115200
;   overridePrinterModels,1
;   printerModelsOverride
;   startingGcode,G28 ; home all axes,G1 Z5 F3000 ; lift,G1 X5 Y10 F1500 ; move to prime,G1 Z0.2 F3000 ; get ready to prime,G92 E0 ; reset extrusion distance,G1 Y80 E10 F600 ; prime nozzle,G1 Y100 F5000 ; quick wipe
;   layerChangeGcode,
;   retractionGcode,
;   toolChangeGcode,
;   endingGcode,G28 X0 ; home x axis,M106 S0 ; turn off cooling fan,M104 S0 ; turn off extruder,M140 S0 ; turn off bed,M84 ; disable motors
;   exportFileFormat,gcode
;   celebration,0
;   celebrationSong,Funky Town
;   postProcessing,
;   defaultSpeed,3600
;   outlineUnderspeed,0.5
;   solidInfillUnderspeed,0.8
;   supportUnderspeed,0.8
;   rapidXYspeed,4800
;   rapidZspeed,1002
;   minBridgingArea,50
;   bridgingExtraInflation,0
;   bridgingExtrusionMultiplier,1
;   bridgingSpeedMultiplier,1
;   useFixedBridgingAngle,0
;   fixedBridgingAngle,0
;   applyBridgingToPerimeters,0
;   filamentDiameters,1.75|1.75|1.75|1.75|1.75|1.75
;   filamentPricesPerKg,46|46|46|46|46|46
;   filamentDensities,1.25|1.25|1.25|1.25|1.25|1.25
;   useMinPrintHeight,0
;   minPrintHeight,0
;   useMaxPrintHeight,0
;   maxPrintHeight,0
;   useDiaphragm,0
;   diaphragmLayerInterval,20
;   robustSlicing,1
;   mergeAllIntoSolid,0
;   onlyRetractWhenCrossingOutline,1
;   retractBetweenLayers,1
;   useRetractionMinTravel,0
;   retractionMinTravel,3
;   retractWhileWiping,0
;   onlyWipeOutlines,1
;   avoidCrossingOutline,0
;   maxMovementDetourFactor,3
;   toolChangeRetractionDistance,12
;   toolChangeExtraRestartDistance,-0.5
;   toolChangeRetractionSpeed,600
;   externalThinWallType,0
;   internalThinWallType,2
;   thinWallAllowedOverlapPercentage,10
;   singleExtrusionMinLength,1
;   singleExtrusionMinPrintingWidthPercentage,50
;   singleExtrusionMaxPrintingWidthPercentage,200
;   singleExtrusionEndpointExtension,0.2
;   horizontalSizeCompensation,0
G90
M82
M106 S0
M140 S50
M190 S50
M104 S210 T0
M109 S210 T0
G28 ; home all axes
G1 Z5 F3000 ; lift
G1 X5 Y10 F1500 ; move to prime
G1 Z0.2 F3000 ; get ready to prime
G92 E0 ; reset extrusion distance
G1 Y80 E10 F600 ; prime nozzle
G1 Y100 F5000 ; quick wipe
; process Process1
; layer 1, Z = 0.190
T0
G92 E0.0000
G1 E-5.0000 F1800
; feature skirt
; tool H0.190 W0.504
G1 Z1.000 F1002
G1 X70.462 Y167.022 F4800
G1 Z0.190 F1002
G1 E0.0000 F1800
G92 E0.0000
G1 X70.462 Y35.325 E5.2432 F1440
G1 X72.085 Y33.701 E5.3346
G1 X135.882 Y33.701 E7.8745
G1 X137.506 Y35.325 E7.9659
G1 X137.506 Y167.022 E13.2091
G1 X135.882 Y168.646 E13.3005
G1 X72.085 Y168.646 E15.8404
G1 X70.462 Y167.022 E15.9318
G92 E0.0000
G1 E-5.0000 F1800
G1 Z1.190 F1002
G1 X70.966 Y166.813 F4800
G1 Z0.190 F1002
G1 E0.0000 F1800
G92 E0.0000
G1 X70.966 Y35.534 E5.2265 F1440
G1 X72.294 Y34.205 E5.3013
G1 X135.673 Y34.205 E7.8246
G1 X137.002 Y35.534 E7.8994
G1 X137.002 Y166.813 E13.1260
G1 X135.673 Y168.142 E13.2008
G1 X72.294 Y168.142 E15.7240
G1 X70.966 Y166.813 E15.7988
G92 E0.0000
G1 E-5.0000 F1800
G1 Z1.190 F1002
G1 X71.470 Y166.605 F4800
G1 Z0.190 F1002
G1 E0.0000 F1800
G92 E0.0000
G1 X71.470 Y35.743 E5.2099 F1440
G1 X72.503 Y34.709 E5.2681
G1 X135.464 Y34.709 E7.7747
G1 X136.498 Y35.743 E7.8329
G1 X136.498 Y166.605 E13.0428
G1 X135.464 Y167.638 E13.1010
G1 X72.503 Y167.638 E15.6077
G1 X71.470 Y166.605 E15.6658
G92 E0.0000
G1 E-5.0000 F1800
G1 Z1.190 F1002
G1 X71.974 Y166.396 F4800
G1 Z0.190 F1002
G1 E0.0000 F1800
G92 E0.0000
G1 X71.974 Y35.952 E5.1933 F1440
G1 X72.712 Y35.213 E5.2349
G1 X135.256 Y35.213 E7.7249
G1 X135.994 Y35.952 E7.7664
G1 X135.994 Y166.396 E12.9597
G1 X135.256 Y167.134 E13.0013
G1 X72.712 Y167.134 E15.4913
G1 X71.974 Y166.396 E15.5329
G92 E0.0000
G1 E-5.0000 F1800
G1 Z1.190 F1002
G1 X72.478 Y166.187 F4800
G1 Z0.190 F1002
G1 E0.0000 F1800
G92 E0.0000
G1 X72.478 Y36.160 E5.1767 F1440
G1 X72.920 Y35.717 E5.2016
G1 X135.047 Y35.717 E7.6750
G1 X135.490 Y36.160 E7.6999
G1 X135.490 Y166.187 E12.8766
G1 X135.047 Y166.630 E12.9015
G1 X72.920 Y166.630 E15.3749
G1 X72.478 Y166.187 E15.3999
G92 E0.0000
G1 E-5.0000 F1800
G1 Z1.190 F1002
G1 X72.982 Y165.978 F4800
G1 Z0.190 F1002
G1 E0.0000 F1800
G92 E0.0000
G1 X72.982 Y36.369 E5.1601 F1440
G1 X73.129 Y36.221 E5.1684
G1 X134.838 Y36.221 E7.6251
G1 X134.986 Y36.369 E7.6334
G1 X134.986 Y165.978 E12.7935
G1 X134.838 Y166.126 E12.8018
G1 X73.129 Y166.126 E15.2586
G1 X72.982 Y165.978 E15.2669
G92 E0.0000
G1 E-5.0000 F1800
; feature inner perimeter
G1 Z1.190 F1002
G1 X74.494 Y164.614 F4800
G1 Z0.190 F1002
G1 E0.0000 F1800
G92 E0.0000
G1 X74.494 Y37.733 E5.0514 F1080
G1 X133.474 Y37.733 E7.3995
G1 X133.474 Y164.614 E12.4510
G1 X74.694 Y164.614 E14.7911
G1 X74.494 Y164.614 F1080
G1 X73.990 Y165.118 F4800
G92 E0.0000
G1 X73.990 Y37.229 E5.0915 F1080
G1 X133.978 Y37.229 E7.4798
G1 X133.978 Y165.118 E12.5714
G1 X74.190 Y165.118 E14.9517
G1 X73.990 Y165.118 F1080
; feature outer perimeter
G1 X73.486 Y165.622 F4800
G92 E0.0000
G1 X73.486 Y36.725 E5.1317 F720
G1 X134.482 Y36.725 E7.5601
G1 X134.482 Y165.622 E12.6917
G1 X73.686 Y165.622 E15.1122
G1 X73.486 Y165.622 F720
; feature solid layer
G1 X75.049 Y164.186 F4800
G92 E0.0000
G1 X74.922 Y164.059 E0.0071 F1152
G1 X74.922 Y163.346 E0.0355
G1 X75.762 Y164.186 E0.0828
G1 X76.474 Y164.186 E0.1112
G1 X74.922 Y162.633 E0.1986
G1 X74.922 Y161.920 E0.2270
G1 X77.187 Y164.186 E0.3545
G1 X77.900 Y164.186 E0.3829
G1 X74.922 Y161.208 E0.5505
G1 X74.922 Y160.495 E0.5789
G1 X78.613 Y164.186 E0.7867
G1 X79.326 Y164.186 E0.8151
G1 X74.922 Y159.782 E1.0630
G1 X74.922 Y159.069 E1.0914
G1 X80.038 Y164.186 E1.3795
G1 X80.751 Y164.186 E1.4079
G1 X74.922 Y158.356 E1.7360
G1 X74.922 Y157.644 E1.7644
G1 X81.464 Y164.186 E2.1327
G1 X82.177 Y164.186 E2.1611
G1 X74.922 Y156.931 E2.5696
G1 X74.922 Y156.218 E2.5980
G1 X82.889 Y164.186 E3.0465
G1 X83.602 Y164.186 E3.0749
G1 X74.922 Y155.505 E3.5636
G1 X74.922 Y154.793 E3.5920
G1 X84.315 Y164.186 E4.1209
G1 X85.028 Y164.186 E4.1492
G1 X74.922 Y154.080 E4.7182
G1 X74.922 Y153.367 E4.7466
G1 X85.740 Y164.186 E5.3557
G1 X86.453 Y164.186 E5.3841
G1 X74.922 Y152.654 E6.0333
G1 X74.922 Y151.942 E6.0617
G1 X87.166 Y164.186 E6.7511
G1 X87.879 Y164.186 E6.7794
G1 X74.922 Y151.229 E7.5090
G1 X74.922 Y150.516 E7.5373
G1 X88.591 Y164.186 E8.3070
G1 X89.304 Y164.186 E8.3353
G1 X74.922 Y149.803 E9.1451
G1 X74.922 Y149.091 E9.1735
G1 X90.017 Y164.186 E10.0234
G1 X90.730 Y164.186 E10.0518
G1 X74.922 Y148.378 E10.9418
G1 X74.922 Y147.665 E10.9702
G1 X91.443 Y164.186 E11.9003
G1 X92.155 Y164.186 E11.9287
G1 X74.922 Y146.952 E12.8990
G1 X74.922 Y146.240 E12.9274
G1 X92.868 Y164.186 E13.9378
G1 X93.581 Y164.186 E13.9661
G1 X74.922 Y145.527 E15.0167
G1 X74.922 Y144.814 E15.0451
G1 X94.294 Y164.186 E16.1358
G1 X95.006 Y164.186 E16.1641
G1 X74.922 Y144.101 E17.2949
G1 X74.922 Y143.388 E17.3233
G1 X95.719 Y164.186 E18.4943
G1 X96.432 Y164.186 E18.5226
G1 X74.922 Y142.676 E19.7337
G1 X74.922 Y141.963 E19.7621
G1 X97.145 Y164.186 E21.0133
G1 X97.857 Y164.186 E21.0417
G1 X74.922 Y141.250 E22.3330
G1 X74.922 Y140.537 E22.3614
G1 X98.570 Y164.186 E23.6928
G1 X99.283 Y164.186 E23.7212
G1 X74.922 Y139.825 E25.0928
G1 X74.922 Y139.112 E25.1212
G1 X99.996 Y164.186 E26.5329
G1 X100.708 Y164.186 E26.5613
G1 X74.922 Y138.399 E28.0132
G1 X74.922 Y137.686 E28.0415
G1 X101.421 Y164.186 E29.5335
G1 X102.134 Y164.186 E29.5619
G1 X74.922 Y136.974 E31.0940
G1 X74.922 Y136.261 E31.1224
G1 X102.847 Y164.186 E32.6946
G1 X103.559 Y164.186 E32.7230
G1 X74.922 Y135.548 E34.3354
G1 X74.922 Y134.835 E34.3638
G1 X104.272 Y164.186 E36.0163
G1 X104.985 Y164.186 E36.0447
G1 X74.922 Y134.123 E37.7373
G1 X74.922 Y133.410 E37.7657
G1 X105.698 Y164.186 E39.4985
G1 X106.411 Y164.186 E39.5268
G1 X74.922 Y132.697 E41.2998
G1 X74.922 Y131.984 E41.3281
G1 X107.123 Y164.186 E43.1412
G1 X107.836 Y164.186 E43.1695
G1 X74.922 Y131.271 E45.0227
G1 X74.922 Y130.559 E45.0511
G1 X108.549 Y164.186 E46.9444
G1 X109.262 Y164.186 E46.9728
G1 X74.922 Y129.846 E48.9062
G1 X74.922 Y129.133 E48.9346
G1 X109.974 Y164.186 E50.9081
G1 X110.687 Y164.186 E50.9365
G1 X74.922 Y128.420 E52.9502
G1 X74.922 Y127.708 E52.9786
G1 X111.400 Y164.186 E55.0324
G1 X112.113 Y164.186 E55.0608
G1 X74.922 Y126.995 E57.1547
G1 X74.922 Y126.282 E57.1831
G1 X112.825 Y164.186 E59.3172
G1 X113.538 Y164.186 E59.3456
G1 X74.922 Y125.569 E61.5198
G1 X74.922 Y124.857 E61.5481
G1 X114.251 Y164.186 E63.7625
G1 X114.964 Y164.186 E63.7909
G1 X74.922 Y124.144 E66.0453
G1 X74.922 Y123.431 E66.0737
G1 X115.676 Y164.186 E68.3683
G1 X116.389 Y164.186 E68.3967
G1 X74.922 Y122.718 E70.7314
G1 X74.922 Y122.006 E70.7598
G1 X117.102 Y164.186 E73.1347
G1 X117.815 Y164.186 E73.1631
G1 X74.922 Y121.293 E75.5781
G1 X74.922 Y120.580 E75.6064
G1 X118.528 Y164.186 E78.0616
G1 X119.240 Y164.186 E78.0900
G1 X74.922 Y119.867 E80.5852
G1 X74.922 Y119.154 E80.6136
G1 X119.953 Y164.186 E83.1490
G1 X120.666 Y164.186 E83.1774
G1 X74.922 Y118.442 E85.7529
G1 X74.922 Y117.729 E85.7813
G1 X121.379 Y164.186 E88.3969
G1 X122.091 Y164.186 E88.4253
G1 X74.922 Y117.016 E91.0811
G1 X74.922 Y116.303 E91.1095
G1 X122.804 Y164.186 E93.8054
G1 X123.517 Y164.186 E93.8337
G1 X74.922 Y115.591 E96.5698
G1 X74.922 Y114.878 E96.5982
G1 X124.230 Y164.186 E99.3743
G1 X124.942 Y164.186 E99.4027
G1 X74.922 Y114.165 E102.2190
G1 X74.922 Y113.452 E102.2474
G1 X125.655 Y164.186 E105.1038
G1 X126.368 Y164.186 E105.1322
G1 X74.922 Y112.740 E108.0288
G1 X74.922 Y112.027 E108.0572
G1 X127.081 Y164.186 E110.9939
G1 X127.793 Y164.186 E111.0222
G1 X74.922 Y111.314 E113.9991
G1 X74.922 Y110.601 E114.0275
G1 X128.506 Y164.186 E117.0444
G1 X129.219 Y164.186 E117.0728
G1 X74.922 Y109.889 E120.1299
G1 X74.922 Y109.176 E120.1583
G1 X129.932 Y164.186 E123.2555
G1 X130.645 Y164.186 E123.2839
G1 X74.922 Y108.463 E126.4212
G1 X74.922 Y107.750 E126.4496
G1 X131.357 Y164.186 E129.6271
G1 X132.070 Y164.186 E129.6555
G1 X74.922 Y107.038 E132.8731
G1 X74.922 Y106.325 E132.9015
G1 X132.783 Y164.186 E136.1592
G1 X133.045 Y164.186 E136.1696
G1 X133.045 Y163.735 E136.1876
G1 X74.922 Y105.612 E139.4601
G1 X74.922 Y104.899 E139.4885
G1 X133.045 Y163.022 E142.7610
G1 X133.045 Y162.310 E142.7894
G1 X74.922 Y104.186 E146.0619
G1 X74.922 Y103.474 E146.0903
G1 X133.045 Y161.597 E149.3628
G1 X133.045 Y160.884 E149.3912
G1 X74.922 Y102.761 E152.6637
G1 X74.922 Y102.048 E152.6921
G1 X133.045 Y160.171 E155.9646
G1 X133.045 Y159.459 E155.9930
G1 X74.922 Y101.335 E159.2655
G1 X74.922 Y100.623 E159.2939
G1 X133.045 Y158.746 E162.5664
G1 X133.045 Y158.033 E162.5948
G1 X74.922 Y99.910 E165.8673
G1 X74.922 Y99.197 E165.8957
G1 X133.045 Y157.320 E169.1682
G1 X133.045 Y156.608 E169.1966
G1 X74.922 Y98.484 E172.4691
G1 X74.922 Y97.772 E172.4975
G1 X133.045 Y155.895 E175.7700
G1 X133.045 Y155.182 E175.7984
G1 X74.922 Y97.059 E179.0709
G1 X74.922 Y96.346 E179.0993
G1 X133.045 Y154.469 E182.3718
G1 X133.045 Y153.756 E182.4002
G1 X74.922 Y95.633 E185.6727
G1 X74.922 Y94.921 E185.7011
G1 X133.045 Y153.044 E188.9736
G1 X133.045 Y152.331 E189.0020
G1 X74.922 Y94.208 E192.2745
G1 X74.922 Y93.495 E192.3029
G1 X133.045 Y151.618 E195.5754
G1 X133.045 Y150.905 E195.6038
G1 X74.922 Y92.782 E198.8763
G1 X74.922 Y92.069 E198.9047
G1 X133.045 Y150.193 E202.1772
G1 X133.045 Y149.480 E202.2056
G1 X74.922 Y91.357 E205.4781
G1 X74.922 Y90.644 E205.5065
G1 X133.045 Y148.767 E208.7790
G1 X133.045 Y148.054 E208.8074
G1 X74.922 Y89.931 E212.0799
G1 X74.922 Y89.218 E212.1083
G1 X133.045 Y147.342 E215.3808
G1 X133.045 Y146.629 E215.4092
G1 X74.922 Y88.506 E218.6817
G1 X74.922 Y87.793 E218.7101
G1 X133.045 Y145.916 E221.9826
G1 X133.045 Y145.203 E222.0110
G1 X74.922 Y87.080 E225.2835
G1 X74.922 Y86.367 E225.3119
G1 X133.045 Y144.491 E228.5844
G1 X133.045 Y143.778 E228.6128
G1 X74.922 Y85.655 E231.8853
G1 X74.922 Y84.942 E231.9137
G1 X133.045 Y143.065 E235.1862
