; G-Code generated by Simplify3D(R) Version 4.1.2
; Oct 30, 2021 at 2:15:53 PM
; Settings Summary
;   processName,Process1
;   applyToModels,irregular box sensor plate
;   profileName,Ender 3 (modified)
;   profileVersion,2018-06-08 13:27:13
;   baseProfile,Creality CR-10 Mini
;   printMaterial,PLA
;   printQuality,Medium
;   printExtruders,
;   extruderName,Primary Extruder
;   extruderToolheadNumber,0
;   extruderDiameter,0.4
;   extruderAutoWidth,1
;   extruderWidth,0.48
;   extrusionMultiplier,1
;   extruderUseRetract,1
;   extruderRetractionDistance,5
;   extruderExtraRestartDistance,0
;   extruderRetractionZLift,1
;   extruderRetractionSpeed,1800
;   extruderUseCoasting,1
;   extruderCoastingDistance,0.2
;   extruderUseWipe,0
;   extruderWipeDistance,5
;   primaryExtruder,0
;   layerHeight,0.2
;   topSolidLayers,4
;   bottomSolidLayers,4
;   perimeterOutlines,3
;   printPerimetersInsideOut,1
;   startPointOption,3
;   startPointOriginX,0
;   startPointOriginY,110
;   sequentialIslands,0
;   spiralVaseMode,0
;   firstLayerHeightPercentage,95
;   firstLayerWidthPercentage,105
;   firstLayerUnderspeed,0.4
;   useRaft,0
;   raftExtruder,0
;   raftTopLayers,2
;   raftBaseLayers,1
;   raftOffset,3
;   raftSeparationDistance,0.14
;   raftTopInfill,100
;   aboveRaftSpeedMultiplier,0.3
;   useSkirt,1
;   skirtExtruder,0
;   skirtLayers,2
;   skirtOutlines,6
;   skirtOffset,0
;   usePrimePillar,0
;   primePillarExtruder,999
;   primePillarWidth,12
;   primePillarLocation,7
;   primePillarSpeedMultiplier,1
;   useOozeShield,0
;   oozeShieldExtruder,999
;   oozeShieldOffset,2
;   oozeShieldOutlines,1
;   oozeShieldSidewallShape,1
;   oozeShieldSidewallAngle,30
;   oozeShieldSpeedMultiplier,1
;   infillExtruder,0
;   internalInfillPattern,Rectilinear
;   externalInfillPattern,Rectilinear
;   infillPercentage,30
;   outlineOverlapPercentage,15
;   infillExtrusionWidthPercentage,100
;   minInfillLength,5
;   infillLayerInterval,1
;   internalInfillAngles,45,-45
;   overlapInternalInfillAngles,0
;   externalInfillAngles,45,-45
;   generateSupport,1
;   supportExtruder,0
;   supportInfillPercentage,15
;   supportExtraInflation,1
;   supportBaseLayers,2
;   denseSupportExtruder,0
;   denseSupportLayers,2
;   denseSupportInfillPercentage,70
;   supportLayerInterval,1
;   supportHorizontalPartOffset,0.3
;   supportUpperSeparationLayers,1
;   supportLowerSeparationLayers,1
;   supportType,0
;   supportGridSpacing,4
;   maxOverhangAngle,45
;   supportAngles,45
;   temperatureName,Primary Extruder,Heated Bed
;   temperatureNumber,0,0
;   temperatureSetpointCount,2,1
;   temperatureSetpointLayers,1,2,1
;   temperatureSetpointTemperatures,210,195,50
;   temperatureStabilizeAtStartup,1,1
;   temperatureHeatedBed,0,1
;   fanLayers,1,2
;   fanSpeeds,0,100
;   blipFanToFullPower,0
;   adjustSpeedForCooling,1
;   minSpeedLayerTime,15
;   minCoolingSpeedSlowdown,20
;   increaseFanForCooling,0
;   minFanLayerTime,45
;   maxCoolingFanSpeed,100
;   increaseFanForBridging,0
;   bridgingFanSpeed,100
;   use5D,1
;   relativeEdistances,0
;   allowEaxisZeroing,1
;   independentExtruderAxes,0
;   includeM10123,0
;   stickySupport,1
;   applyToolheadOffsets,0
;   gcodeXoffset,0
;   gcodeYoffset,0
;   gcodeZoffset,0
;   overrideMachineDefinition,1
;   machineTypeOverride,0
;   strokeXoverride,220
;   strokeYoverride,220
;   strokeZoverride,250
;   originOffsetXoverride,0
;   originOffsetYoverride,0
;   originOffsetZoverride,0
;   homeXdirOverride,-1
;   homeYdirOverride,-1
;   homeZdirOverride,-1
;   flipXoverride,1
;   flipYoverride,-1
;   flipZoverride,1
;   toolheadOffsets,0,0|0,0|0,0|0,0|0,0|0,0
;   overrideFirmwareConfiguration,1
;   firmwareTypeOverride,RepRap (Marlin/Repetier/Sprinter)
;   GPXconfigOverride,r2
;   baudRateOverride,115200
;   overridePrinterModels,1
;   printerModelsOverride
;   startingGcode,G28 ; home all axes,G1 Z5 F3000 ; lift,G1 X5 Y10 F1500 ; move to prime,G1 Z0.2 F3000 ; get ready to prime,G92 E0 ; reset extrusion distance,G1 Y80 E10 F600 ; prime nozzle,G1 Y100 F5000 ; quick wipe
;   layerChangeGcode,
;   retractionGcode,
;   toolChangeGcode,
;   endingGcode,G28 X0 ; home x axis,M106 S0 ; turn off cooling fan,M104 S0 ; turn off extruder,M140 S0 ; turn off bed,M84 ; disable motors
;   exportFileFormat,gcode
;   celebration,0
;   celebrationSong,Funky Town
;   postProcessing,
;   defaultSpeed,3600
;   outlineUnderspeed,0.5
;   solidInfillUnderspeed,0.8
;   supportUnderspeed,0.8
;   rapidXYspeed,4800
;   rapidZspeed,1002
;   minBridgingArea,50
;   bridgingExtraInflation,0
;   bridgingExtrusionMultiplier,1
;   bridgingSpeedMultiplier,1
;   useFixedBridgingAngle,0
;   fixedBridgingAngle,0
;   applyBridgingToPerimeters,0
;   filamentDiameters,1.75|1.75|1.75|1.75|1.75|1.75
;   filamentPricesPerKg,46|46|46|46|46|46
;   filamentDensities,1.25|1.25|1.25|1.25|1.25|1.25
;   useMinPrintHeight,0
;   minPrintHeight,0
;   useMaxPrintHeight,0
;   maxPrintHeight,0
;   useDiaphragm,0
;   diaphragmLayerInterval,20
;   robustSlicing,1
;   mergeAllIntoSolid,0
;   onlyRetractWhenCrossingOutline,1
;   retractBetweenLayers,1
;   useRetractionMinTravel,0
;   retractionMinTravel,3
;   retractWhileWiping,0
;   onlyWipeOutlines,1
;   avoidCrossingOutline,0
;   maxMovementDetourFactor,3
;   toolChangeRetractionDistance,12
;   toolChangeExtraRestartDistance,-0.5
;   toolChangeRetractionSpeed,600
;   externalThinWallType,0
;   internalThinWallType,2
;   thinWallAllowedOverlapPercentage,10
;   singleExtrusionMinLength,1
;   singleExtrusionMinPrintingWidthPercentage,50
;   singleExtrusionMaxPrintingWidthPercentage,200
;   singleExtrusionEndpointExtension,0.2
;   horizontalSizeCompensation,0
G90
M82
M106 S0
M140 S50
M190 S50
M104 S210 T0
M109 S210 T0
G28 ; home all axes
G1 Z5 F3000 ; lift
G1 X5 Y10 F1500 ; move to prime
G1 Z0.2 F3000 ; get ready to prime
G92 E0 ; reset extrusion distance
G1 Y80 E10 F600 ; prime nozzle
G1 Y100 F5000 ; quick wipe
; process Process1
; layer 1, Z = 0.190
T0
G92 E0.0000
G1 E-5.0000 F1800
; feature skirt
; tool H0.190 W0.504
G1 Z1.000 F1002
G1 X81.041 Y112.525 F4800
G1 Z0.190 F1002
G1 E0.0000 F1800
G92 E0.0000
G1 X81.989 Y105.017 E0.3013 F1440
G1 X82.076 Y104.680 E0.3152
G1 X84.860 Y97.644 E0.6164
G1 X85.028 Y97.338 E0.6303
G1 X89.475 Y91.215 E0.9316
G1 X89.714 Y90.961 E0.9455
G1 X95.543 Y86.136 E1.2467
G1 X95.837 Y85.949 E1.2606
G1 X102.683 Y82.725 E1.5619
G1 X103.014 Y82.617 E1.5757
G1 X110.412 Y81.202 E1.8756
G1 X110.673 Y81.177 E1.8860
G1 X146.939 Y81.177 E3.3299
G1 X148.563 Y82.801 E3.4213
G1 X148.563 Y142.598 E5.8019
G1 X146.939 Y144.221 E5.8934
G1 X110.673 Y144.221 E7.3372
G1 X110.412 Y144.197 E7.3476
G1 X103.014 Y142.782 E7.6475
G1 X102.683 Y142.674 E7.6614
G1 X95.837 Y139.450 E7.9626
G1 X95.543 Y139.263 E7.9765
G1 X89.714 Y134.438 E8.2778
G1 X89.475 Y134.184 E8.2916
G1 X85.028 Y128.060 E8.5929
G1 X84.860 Y127.755 E8.6068
G1 X82.076 Y120.719 E8.9081
G1 X81.989 Y120.381 E8.9220
G1 X81.041 Y112.874 E9.2232
G1 X81.041 Y112.525 E9.2371
G92 E0.0000
G1 E-5.0000 F1800
G1 Z1.190 F1002
G1 X81.545 Y112.557 F4800
G1 Z0.190 F1002
G1 E0.0000 F1800
G92 E0.0000
G1 X82.485 Y105.112 E0.2987 F1440
G1 X82.556 Y104.836 E0.3101
G1 X85.317 Y97.859 E0.6088
G1 X85.455 Y97.609 E0.6202
G1 X89.864 Y91.537 E0.9190
G1 X90.060 Y91.329 E0.9303
G1 X95.840 Y86.544 E1.2290
G1 X96.081 Y86.391 E1.2404
G1 X102.869 Y83.194 E1.5391
G1 X103.140 Y83.106 E1.5505
G1 X110.483 Y81.702 E1.8481
G1 X110.697 Y81.681 E1.8567
G1 X146.730 Y81.681 E3.2913
G1 X148.059 Y83.010 E3.3661
G1 X148.059 Y142.389 E5.7301
G1 X146.730 Y143.717 E5.8049
G1 X110.697 Y143.717 E7.2395
G1 X110.483 Y143.697 E7.2480
G1 X103.140 Y142.293 E7.5456
G1 X102.869 Y142.205 E7.5570
G1 X96.081 Y139.007 E7.8557
G1 X95.840 Y138.854 E7.8671
G1 X90.060 Y134.070 E8.1658
G1 X89.864 Y133.862 E8.1772
G1 X85.455 Y127.790 E8.4760
G1 X85.317 Y127.540 E8.4873
G1 X82.556 Y120.563 E8.7860
G1 X82.485 Y120.287 E8.7974
G1 X81.545 Y112.842 E9.0961
G1 X81.545 Y112.557 E9.1075
G92 E0.0000
G1 E-5.0000 F1800
G1 Z1.190 F1002
G1 X82.049 Y112.588 F4800
G1 Z0.190 F1002
G1 E0.0000 F1800
G92 E0.0000
G1 X82.981 Y105.207 E0.2962 F1440
G1 X83.036 Y104.992 E0.3051
G1 X85.774 Y98.074 E0.6013
G1 X85.881 Y97.879 E0.6101
G1 X90.253 Y91.859 E0.9063
G1 X90.405 Y91.697 E0.9152
G1 X96.137 Y86.953 E1.2114
G1 X96.324 Y86.834 E1.2202
G1 X103.055 Y83.664 E1.5164
G1 X103.266 Y83.595 E1.5253
G1 X110.555 Y82.201 E1.8207
G1 X110.721 Y82.185 E1.8273
G1 X146.522 Y82.185 E3.2527
G1 X147.555 Y83.219 E3.3108
G1 X147.555 Y142.180 E5.6582
G1 X146.522 Y143.213 E5.7164
G1 X110.721 Y143.213 E7.1417
G1 X110.555 Y143.198 E7.1484
G1 X103.266 Y141.804 E7.4438
G1 X103.055 Y141.735 E7.4526
G1 X96.324 Y138.565 E7.7488
G1 X96.137 Y138.446 E7.7577
G1 X90.405 Y133.702 E8.0539
G1 X90.254 Y133.540 E8.0627
G1 X85.881 Y127.519 E8.3590
G1 X85.774 Y127.325 E8.3678
G1 X83.036 Y120.407 E8.6640
G1 X82.981 Y120.192 E8.6728
G1 X82.049 Y112.810 E8.9691
G1 X82.049 Y112.588 E8.9779
G92 E0.0000
G1 E-5.0000 F1800
G1 Z1.190 F1002
G1 X82.553 Y112.620 F4800
G1 Z0.190 F1002
G1 E0.0000 F1800
G92 E0.0000
G1 X83.477 Y105.301 E0.2937 F1440
G1 X83.516 Y105.148 E0.3000
G1 X86.231 Y98.289 E0.5937
G1 X86.308 Y98.150 E0.6000
G1 X90.643 Y92.181 E0.8937
G1 X90.751 Y92.065 E0.9000
G1 X96.434 Y87.361 E1.1937
G1 X96.568 Y87.276 E1.2000
G1 X103.241 Y84.133 E1.4937
G1 X103.392 Y84.084 E1.5000
G1 X110.626 Y82.701 E1.7932
G1 X110.745 Y82.689 E1.7980
G1 X146.313 Y82.689 E3.2140
G1 X147.051 Y83.427 E3.2556
G1 X147.051 Y141.971 E5.5864
G1 X146.313 Y142.709 E5.6279
G1 X110.745 Y142.709 E7.0440
G1 X110.626 Y142.698 E7.0487
G1 X103.392 Y141.315 E7.3420
G1 X103.241 Y141.266 E7.3483
G1 X96.568 Y138.122 E7.6420
G1 X96.434 Y138.038 E7.6483
G1 X90.751 Y133.334 E7.9420
G1 X90.643 Y133.218 E7.9483
G1 X86.308 Y127.249 E8.2420
G1 X86.231 Y127.110 E8.2483
G1 X83.516 Y120.251 E8.5420
G1 X83.477 Y120.097 E8.5483
G1 X82.553 Y112.779 E8.8420
G1 X82.553 Y112.620 E8.8483
G92 E0.0000
G1 E-5.0000 F1800
G1 Z1.190 F1002
G1 X83.057 Y112.652 F4800
G1 Z0.190 F1002
G1 E0.0000 F1800
G92 E0.0000
G1 X83.973 Y105.396 E0.2912 F1440
G1 X83.997 Y105.304 E0.2950
G1 X86.688 Y98.504 E0.5861
G1 X86.734 Y98.420 E0.5899
G1 X91.032 Y92.502 E0.8811
G1 X91.097 Y92.433 E0.8849
G1 X96.731 Y87.770 E1.1760
G1 X96.811 Y87.719 E1.1798
G1 X103.427 Y84.602 E1.4710
G1 X103.518 Y84.573 E1.4748
G1 X110.697 Y83.200 E1.7658
G1 X110.768 Y83.193 E1.7686
G1 X146.104 Y83.193 E3.1754
G1 X146.547 Y83.636 E3.2004
G1 X146.547 Y141.763 E5.5145
G1 X146.104 Y142.205 E5.5395
G1 X110.768 Y142.205 E6.9463
G1 X110.697 Y142.199 E6.9491
G1 X103.518 Y140.826 E7.2401
G1 X103.427 Y140.796 E7.2439
G1 X96.811 Y137.680 E7.5351
G1 X96.731 Y137.629 E7.5389
G1 X91.097 Y132.966 E7.8300
G1 X91.032 Y132.896 E7.8338
G1 X86.734 Y126.979 E8.1250
G1 X86.688 Y126.895 E8.1288
G1 X83.997 Y120.095 E8.4199
G1 X83.973 Y120.003 E8.4237
G1 X83.057 Y112.747 E8.7149
G1 X83.057 Y112.652 E8.7187
G92 E0.0000
G1 E-5.0000 F1800
G1 Z1.190 F1002
G1 X83.561 Y112.684 F4800
G1 Z0.190 F1002
G1 E0.0000 F1800
G92 E0.0000
G1 X84.469 Y105.491 E0.2886 F1440
G1 X84.477 Y105.460 E0.2899
G1 X87.145 Y98.718 E0.5786
G1 X87.160 Y98.691 E0.5798
G1 X91.421 Y92.824 E0.8685
G1 X91.443 Y92.801 E0.8697
G1 X97.028 Y88.178 E1.1584
G1 X97.054 Y88.161 E1.1596
G1 X103.613 Y85.072 E1.4483
G1 X103.644 Y85.062 E1.4495
G1 X110.769 Y83.700 E1.7383
G1 X110.792 Y83.697 E1.7393
G1 X145.895 Y83.697 E3.1368
G1 X146.043 Y83.845 E3.1451
G1 X146.043 Y141.554 E5.4427
G1 X145.895 Y141.701 E5.4510
G1 X110.792 Y141.701 E6.8485
G1 X110.769 Y141.699 E6.8495
G1 X103.644 Y140.337 E7.1383
G1 X103.613 Y140.327 E7.1395
G1 X97.054 Y137.238 E7.4282
G1 X97.028 Y137.221 E7.4294
G1 X91.443 Y132.598 E7.7181
G1 X91.421 Y132.574 E7.7193
G1 X87.160 Y126.708 E8.0080
G1 X87.145 Y126.680 E8.0093
G1 X84.477 Y119.939 E8.2979
G1 X84.469 Y119.908 E8.2992
G1 X83.561 Y112.715 E8.5878
G1 X83.561 Y112.684 E8.5891
G92 E0.0000
G1 E-5.0000 F1800
; feature inner perimeter
G1 Z1.190 F1002
G1 X85.083 Y112.699 F4800
G1 Z0.190 F1002
G1 E0.0000 F1800
G92 E0.0000
G1 X85.947 Y105.854 E0.2747 F1080
G1 X88.487 Y99.438 E0.5494
G1 X92.541 Y93.854 E0.8241
G1 X97.857 Y89.455 E1.0989
G1 X104.099 Y86.514 E1.3736
G1 X110.924 Y85.209 E1.6502
G1 X144.531 Y85.209 E2.9882
G1 X144.531 Y140.189 E5.1771
G1 X110.924 Y140.189 E6.5151
G1 X104.099 Y138.884 E6.7917
G1 X97.857 Y135.944 E7.0664
G1 X92.541 Y131.544 E7.3411
G1 X88.487 Y125.961 E7.6158
G1 X85.947 Y119.545 E7.8905
G1 X85.108 Y112.898 E8.1573
G1 X85.083 Y112.699 F1080
G1 X84.575 Y112.699 F4800
G92 E0.0000
G1 X85.455 Y105.727 E0.2798 F1080
G1 X88.042 Y99.193 E0.5596
G1 X92.171 Y93.507 E0.8393
G1 X97.585 Y89.026 E1.1191
G1 X103.942 Y86.031 E1.3989
G1 X110.876 Y84.705 E1.6800
G1 X145.035 Y84.705 E3.0399
G1 X145.035 Y140.693 E5.2689
G1 X110.876 Y140.693 E6.6289
G1 X103.942 Y139.368 E6.9099
G1 X97.585 Y136.373 E7.1897
G1 X92.171 Y131.892 E7.4695
G1 X88.042 Y126.206 E7.7493
G1 X85.455 Y119.672 E8.0291
G1 X84.600 Y112.898 E8.3009
G1 X84.575 Y112.699 F1080
; feature outer perimeter
G1 X84.067 Y112.699 F4800
G92 E0.0000
G1 X84.963 Y105.601 E0.2848 F720
G1 X87.596 Y98.948 E0.5697
G1 X91.801 Y93.159 E0.8545
G1 X97.312 Y88.597 E1.1394
G1 X103.785 Y85.548 E1.4243
G1 X110.828 Y84.201 E1.7097
G1 X145.539 Y84.201 E3.0917
G1 X145.539 Y141.197 E5.3608
G1 X110.828 Y141.197 E6.7427
G1 X103.785 Y139.851 E7.0282
G1 X97.312 Y136.802 E7.3131
G1 X91.801 Y132.240 E7.5979
G1 X87.596 Y126.450 E7.8828
G1 X84.963 Y119.798 E8.1676
G1 X84.092 Y112.898 E8.4445
G1 X84.067 Y112.699 F720
; feature inner perimeter
G1 X89.339 Y112.931 F4800
G92 E0.0000
G1 X89.561 Y114.158 E0.0496 F1080
G1 X90.094 Y115.285 E0.0993
G1 X90.900 Y116.236 E0.1489
G1 X91.929 Y116.949 E0.1987
G1 X93.132 Y117.369 E0.2495
G1 X94.340 Y117.469 E0.2977
G1 X95.567 Y117.246 E0.3474
G1 X96.694 Y116.714 E0.3970
G1 X97.645 Y115.908 E0.4466
G1 X98.355 Y114.884 E0.4963
G1 X98.776 Y113.710 E0.5459
G1 X98.878 Y112.468 E0.5955
G1 X98.656 Y111.241 E0.6451
G1 X98.123 Y110.114 E0.6948
G1 X97.317 Y109.163 E0.7444
G1 X96.293 Y108.453 E0.7940
G1 X95.119 Y108.032 E0.8437
G1 X93.877 Y107.930 E0.8933
G1 X92.650 Y108.152 E0.9429
G1 X91.523 Y108.685 E0.9925
G1 X90.572 Y109.491 E1.0422
G1 X89.862 Y110.515 E1.0918
G1 X89.442 Y111.689 E1.1414
G1 X89.355 Y112.732 E1.1831
G1 X89.339 Y112.931 F1080
G1 X89.847 Y112.906 F4800
G92 E0.0000
G1 X90.045 Y114.002 E0.0443 F1080
G1 X90.521 Y115.010 E0.0887
G1 X91.241 Y115.859 E0.1330
G1 X92.159 Y116.495 E0.1775
G1 X93.237 Y116.872 E0.2230
G1 X94.315 Y116.961 E0.2660
G1 X95.411 Y116.762 E0.3104
G1 X96.419 Y116.287 E0.3547
G1 X97.268 Y115.567 E0.3991
G1 X97.903 Y114.651 E0.4434
G1 X98.279 Y113.603 E0.4878
G1 X98.370 Y112.492 E0.5321
G1 X98.172 Y111.396 E0.5765
G1 X97.696 Y110.389 E0.6208
G1 X96.976 Y109.540 E0.6651
G1 X96.060 Y108.905 E0.7095
G1 X95.012 Y108.529 E0.7538
G1 X93.902 Y108.438 E0.7982
G1 X92.806 Y108.636 E0.8425
G1 X91.798 Y109.112 E0.8869
G1 X90.949 Y109.832 E0.9312
G1 X90.314 Y110.748 E0.9756
G1 X89.938 Y111.796 E1.0199
G1 X89.863 Y112.707 E1.0563
G1 X89.847 Y112.906 F1080
; feature outer perimeter
G1 X90.354 Y112.882 F4800
G92 E0.0000
G1 X90.530 Y113.847 E0.0391 F720
G1 X90.949 Y114.734 E0.0781
G1 X91.583 Y115.483 E0.1172
G1 X92.390 Y116.042 E0.1563
G1 X93.343 Y116.375 E0.1965
G1 X94.291 Y116.453 E0.2343
G1 X95.256 Y116.278 E0.2734
G1 X96.143 Y115.859 E0.3125
G1 X96.892 Y115.225 E0.3515
G1 X97.451 Y114.419 E0.3906
G1 X97.782 Y113.495 E0.4296
G1 X97.863 Y112.517 E0.4687
G1 X97.687 Y111.552 E0.5078
G1 X97.268 Y110.664 E0.5468
G1 X96.634 Y109.916 E0.5859
G1 X95.828 Y109.357 E0.6250
G1 X94.904 Y109.026 E0.6640
