; G-Code generated by Simplify3D(R) Version 4.1.2
; Oct 30, 2021 at 2:08:18 PM
; Settings Summary
;   processName,Process1
;   applyToModels,irregular box logo support
;   profileName,Ender 3 (modified)
;   profileVersion,2018-06-08 13:27:13
;   baseProfile,Creality CR-10 Mini
;   printMaterial,PLA
;   printQuality,Medium
;   printExtruders,
;   extruderName,Primary Extruder
;   extruderToolheadNumber,0
;   extruderDiameter,0.4
;   extruderAutoWidth,1
;   extruderWidth,0.48
;   extrusionMultiplier,1
;   extruderUseRetract,1
;   extruderRetractionDistance,5
;   extruderExtraRestartDistance,0
;   extruderRetractionZLift,1
;   extruderRetractionSpeed,1800
;   extruderUseCoasting,1
;   extruderCoastingDistance,0.2
;   extruderUseWipe,0
;   extruderWipeDistance,5
;   primaryExtruder,0
;   layerHeight,0.2
;   topSolidLayers,4
;   bottomSolidLayers,4
;   perimeterOutlines,3
;   printPerimetersInsideOut,1
;   startPointOption,3
;   startPointOriginX,0
;   startPointOriginY,110
;   sequentialIslands,0
;   spiralVaseMode,0
;   firstLayerHeightPercentage,95
;   firstLayerWidthPercentage,105
;   firstLayerUnderspeed,0.4
;   useRaft,0
;   raftExtruder,0
;   raftTopLayers,2
;   raftBaseLayers,1
;   raftOffset,3
;   raftSeparationDistance,0.14
;   raftTopInfill,100
;   aboveRaftSpeedMultiplier,0.3
;   useSkirt,1
;   skirtExtruder,0
;   skirtLayers,2
;   skirtOutlines,6
;   skirtOffset,0
;   usePrimePillar,0
;   primePillarExtruder,999
;   primePillarWidth,12
;   primePillarLocation,7
;   primePillarSpeedMultiplier,1
;   useOozeShield,0
;   oozeShieldExtruder,999
;   oozeShieldOffset,2
;   oozeShieldOutlines,1
;   oozeShieldSidewallShape,1
;   oozeShieldSidewallAngle,30
;   oozeShieldSpeedMultiplier,1
;   infillExtruder,0
;   internalInfillPattern,Rectilinear
;   externalInfillPattern,Rectilinear
;   infillPercentage,30
;   outlineOverlapPercentage,15
;   infillExtrusionWidthPercentage,100
;   minInfillLength,5
;   infillLayerInterval,1
;   internalInfillAngles,45,-45
;   overlapInternalInfillAngles,0
;   externalInfillAngles,45,-45
;   generateSupport,1
;   supportExtruder,0
;   supportInfillPercentage,15
;   supportExtraInflation,1
;   supportBaseLayers,2
;   denseSupportExtruder,0
;   denseSupportLayers,2
;   denseSupportInfillPercentage,70
;   supportLayerInterval,1
;   supportHorizontalPartOffset,0.3
;   supportUpperSeparationLayers,1
;   supportLowerSeparationLayers,1
;   supportType,0
;   supportGridSpacing,4
;   maxOverhangAngle,45
;   supportAngles,45
;   temperatureName,Primary Extruder,Heated Bed
;   temperatureNumber,0,0
;   temperatureSetpointCount,2,1
;   temperatureSetpointLayers,1,2,1
;   temperatureSetpointTemperatures,210,195,50
;   temperatureStabilizeAtStartup,1,1
;   temperatureHeatedBed,0,1
;   fanLayers,1,2
;   fanSpeeds,0,100
;   blipFanToFullPower,0
;   adjustSpeedForCooling,1
;   minSpeedLayerTime,15
;   minCoolingSpeedSlowdown,20
;   increaseFanForCooling,0
;   minFanLayerTime,45
;   maxCoolingFanSpeed,100
;   increaseFanForBridging,0
;   bridgingFanSpeed,100
;   use5D,1
;   relativeEdistances,0
;   allowEaxisZeroing,1
;   independentExtruderAxes,0
;   includeM10123,0
;   stickySupport,1
;   applyToolheadOffsets,0
;   gcodeXoffset,0
;   gcodeYoffset,0
;   gcodeZoffset,0
;   overrideMachineDefinition,1
;   machineTypeOverride,0
;   strokeXoverride,220
;   strokeYoverride,220
;   strokeZoverride,250
;   originOffsetXoverride,0
;   originOffsetYoverride,0
;   originOffsetZoverride,0
;   homeXdirOverride,-1
;   homeYdirOverride,-1
;   homeZdirOverride,-1
;   flipXoverride,1
;   flipYoverride,-1
;   flipZoverride,1
;   toolheadOffsets,0,0|0,0|0,0|0,0|0,0|0,0
;   overrideFirmwareConfiguration,1
;   firmwareTypeOverride,RepRap (Marlin/Repetier/Sprinter)
;   GPXconfigOverride,r2
;   baudRateOverride,115200
;   overridePrinterModels,1
;   printerModelsOverride
;   startingGcode,G28 ; home all axes,G1 Z5 F3000 ; lift,G1 X5 Y10 F1500 ; move to prime,G1 Z0.2 F3000 ; get ready to prime,G92 E0 ; reset extrusion distance,G1 Y80 E10 F600 ; prime nozzle,G1 Y100 F5000 ; quick wipe
;   layerChangeGcode,
;   retractionGcode,
;   toolChangeGcode,
;   endingGcode,G28 X0 ; home x axis,M106 S0 ; turn off cooling fan,M104 S0 ; turn off extruder,M140 S0 ; turn off bed,M84 ; disable motors
;   exportFileFormat,gcode
;   celebration,0
;   celebrationSong,Funky Town
;   postProcessing,
;   defaultSpeed,3600
;   outlineUnderspeed,0.5
;   solidInfillUnderspeed,0.8
;   supportUnderspeed,0.8
;   rapidXYspeed,4800
;   rapidZspeed,1002
;   minBridgingArea,50
;   bridgingExtraInflation,0
;   bridgingExtrusionMultiplier,1
;   bridgingSpeedMultiplier,1
;   useFixedBridgingAngle,0
;   fixedBridgingAngle,0
;   applyBridgingToPerimeters,0
;   filamentDiameters,1.75|1.75|1.75|1.75|1.75|1.75
;   filamentPricesPerKg,46|46|46|46|46|46
;   filamentDensities,1.25|1.25|1.25|1.25|1.25|1.25
;   useMinPrintHeight,0
;   minPrintHeight,0
;   useMaxPrintHeight,0
;   maxPrintHeight,0
;   useDiaphragm,0
;   diaphragmLayerInterval,20
;   robustSlicing,1
;   mergeAllIntoSolid,0
;   onlyRetractWhenCrossingOutline,1
;   retractBetweenLayers,1
;   useRetractionMinTravel,0
;   retractionMinTravel,3
;   retractWhileWiping,0
;   onlyWipeOutlines,1
;   avoidCrossingOutline,0
;   maxMovementDetourFactor,3
;   toolChangeRetractionDistance,12
;   toolChangeExtraRestartDistance,-0.5
;   toolChangeRetractionSpeed,600
;   externalThinWallType,0
;   internalThinWallType,2
;   thinWallAllowedOverlapPercentage,10
;   singleExtrusionMinLength,1
;   singleExtrusionMinPrintingWidthPercentage,50
;   singleExtrusionMaxPrintingWidthPercentage,200
;   singleExtrusionEndpointExtension,0.2
;   horizontalSizeCompensation,0
G90
M82
M106 S0
M140 S50
M190 S50
M104 S210 T0
M109 S210 T0
G28 ; home all axes
G1 Z5 F3000 ; lift
G1 X5 Y10 F1500 ; move to prime
G1 Z0.2 F3000 ; get ready to prime
G92 E0 ; reset extrusion distance
G1 Y80 E10 F600 ; prime nozzle
G1 Y100 F5000 ; quick wipe
; process Process1
; layer 1, Z = 0.190
T0
G92 E0.0000
G1 E-5.0000 F1800
; feature skirt
; tool H0.190 W0.504
G1 Z1.000 F1002
G1 X76.228 Y114.148 F4800
G1 Z0.190 F1002
G1 E0.0000 F1800
G92 E0.0000
G1 X76.228 Y105.852 E0.3303 F1440
G1 X77.852 Y104.228 E0.4217
G1 X142.148 Y104.228 E2.9815
G1 X143.772 Y105.852 E3.0729
G1 X143.772 Y114.148 E3.4032
G1 X142.148 Y115.772 E3.4947
G1 X77.852 Y115.772 E6.0545
G1 X76.228 Y114.148 E6.1459
G92 E0.0000
G1 E-5.0000 F1800
G1 Z1.190 F1002
G1 X76.732 Y113.939 F4800
G1 Z0.190 F1002
G1 E0.0000 F1800
G92 E0.0000
G1 X76.732 Y106.061 E0.3137 F1440
G1 X78.061 Y104.732 E0.3885
G1 X141.939 Y104.732 E2.9316
G1 X143.268 Y106.061 E3.0064
G1 X143.268 Y113.939 E3.3201
G1 X141.939 Y115.268 E3.3949
G1 X78.061 Y115.268 E5.9381
G1 X76.732 Y113.939 E6.0129
G92 E0.0000
G1 E-5.0000 F1800
G1 Z1.190 F1002
G1 X77.236 Y113.731 F4800
G1 Z0.190 F1002
G1 E0.0000 F1800
G92 E0.0000
G1 X77.236 Y106.269 E0.2971 F1440
G1 X78.269 Y105.236 E0.3552
G1 X141.731 Y105.236 E2.8818
G1 X142.764 Y106.269 E2.9400
G1 X142.764 Y113.731 E3.2370
G1 X141.731 Y114.764 E3.2952
G1 X78.269 Y114.764 E5.8217
G1 X77.236 Y113.731 E5.8799
G92 E0.0000
G1 E-5.0000 F1800
G1 Z1.190 F1002
G1 X77.740 Y113.522 F4800
G1 Z0.190 F1002
G1 E0.0000 F1800
G92 E0.0000
G1 X77.740 Y106.478 E0.2804 F1440
G1 X78.478 Y105.740 E0.3220
G1 X141.522 Y105.740 E2.8319
G1 X142.260 Y106.478 E2.8735
G1 X142.260 Y113.522 E3.1539
G1 X141.522 Y114.260 E3.1955
G1 X78.478 Y114.260 E5.7054
G1 X77.740 Y113.522 E5.7469
G92 E0.0000
G1 E-5.0000 F1800
G1 Z1.190 F1002
G1 X78.244 Y113.313 F4800
G1 Z0.190 F1002
G1 E0.0000 F1800
G92 E0.0000
G1 X78.244 Y106.687 E0.2638 F1440
G1 X78.687 Y106.244 E0.2887
G1 X141.313 Y106.244 E2.7820
G1 X141.756 Y106.687 E2.8070
G1 X141.756 Y113.313 E3.0708
G1 X141.313 Y113.756 E3.0957
G1 X78.687 Y113.756 E5.5890
G1 X78.244 Y113.313 E5.6140
G92 E0.0000
G1 E-5.0000 F1800
G1 Z1.190 F1002
G1 X78.748 Y113.104 F4800
G1 Z0.190 F1002
G1 E0.0000 F1800
G92 E0.0000
G1 X78.748 Y106.896 E0.2472 F1440
G1 X78.896 Y106.748 E0.2555
G1 X141.104 Y106.748 E2.7322
G1 X141.252 Y106.896 E2.7405
G1 X141.252 Y113.104 E2.9877
G1 X141.104 Y113.252 E2.9960
G1 X78.896 Y113.252 E5.4727
G1 X78.748 Y113.104 E5.4810
G92 E0.0000
G1 E-5.0000 F1800
; feature inner perimeter
G1 Z1.190 F1002
G1 X80.260 Y111.740 F4800
G1 Z0.190 F1002
G1 E0.0000 F1800
G92 E0.0000
G1 X80.260 Y108.260 E0.1385 F1080
G1 X139.740 Y108.260 E2.5066
G1 X139.740 Y111.740 E2.6451
G1 X80.460 Y111.740 E5.0052
G1 X80.260 Y111.740 F1080
G1 X79.756 Y112.244 F4800
G92 E0.0000
G1 X79.756 Y107.756 E0.1787 F1080
G1 X140.244 Y107.756 E2.5868
G1 X140.244 Y112.244 E2.7655
G1 X79.956 Y112.244 E5.1657
G1 X79.756 Y112.244 F1080
; feature outer perimeter
G1 X79.252 Y112.748 F4800
G92 E0.0000
G1 X79.252 Y107.252 E0.2188 F720
G1 X140.748 Y107.252 E2.6671
G1 X140.748 Y112.748 E2.8859
G1 X79.452 Y112.748 E5.3263
G1 X79.252 Y112.748 F720
; feature solid layer
G1 X81.376 Y111.312 F4800
G92 E0.0000
G1 X80.688 Y110.624 E0.0387 F1152
G1 X80.688 Y109.912 E0.0671
G1 X82.088 Y111.312 E0.1459
G1 X82.801 Y111.312 E0.1743
G1 X80.688 Y109.199 E0.2932
G1 X80.688 Y108.688 E0.3135
G1 X80.891 Y108.688 E0.3216
G1 X83.514 Y111.312 E0.4693
G1 X84.227 Y111.312 E0.4977
G1 X81.603 Y108.688 E0.6454
G1 X82.316 Y108.688 E0.6737
G1 X84.939 Y111.312 E0.8214
G1 X85.652 Y111.312 E0.8498
G1 X83.029 Y108.688 E0.9975
G1 X83.742 Y108.688 E1.0259
G1 X86.365 Y111.312 E1.1736
G1 X87.078 Y111.312 E1.2019
G1 X84.454 Y108.688 E1.3496
G1 X85.167 Y108.688 E1.3780
G1 X87.790 Y111.312 E1.5257
G1 X88.503 Y111.312 E1.5541
G1 X85.880 Y108.688 E1.7018
G1 X86.593 Y108.688 E1.7302
G1 X89.216 Y111.312 E1.8779
G1 X89.929 Y111.312 E1.9062
G1 X87.306 Y108.688 E2.0539
G1 X88.018 Y108.688 E2.0823
G1 X90.641 Y111.312 E2.2300
G1 X91.354 Y111.312 E2.2584
G1 X88.731 Y108.688 E2.4061
G1 X89.444 Y108.688 E2.4344
G1 X92.067 Y111.312 E2.5821
G1 X92.780 Y111.312 E2.6105
G1 X90.157 Y108.688 E2.7582
G1 X90.869 Y108.688 E2.7866
G1 X93.493 Y111.312 E2.9343
G1 X94.205 Y111.312 E2.9627
G1 X91.582 Y108.688 E3.1104
G1 X92.295 Y108.688 E3.1387
G1 X94.918 Y111.312 E3.2864
G1 X95.631 Y111.312 E3.3148
G1 X93.008 Y108.688 E3.4625
G1 X93.720 Y108.688 E3.4909
G1 X96.344 Y111.312 E3.6386
G1 X97.056 Y111.312 E3.6669
G1 X94.433 Y108.688 E3.8146
G1 X95.146 Y108.688 E3.8430
G1 X97.769 Y111.312 E3.9907
G1 X98.482 Y111.312 E4.0191
G1 X95.859 Y108.688 E4.1668
G1 X96.571 Y108.688 E4.1952
G1 X99.195 Y111.312 E4.3429
G1 X99.907 Y111.312 E4.3712
G1 X97.284 Y108.688 E4.5189
G1 X97.997 Y108.688 E4.5473
G1 X100.620 Y111.312 E4.6950
G1 X101.333 Y111.312 E4.7234
G1 X98.710 Y108.688 E4.8711
G1 X99.422 Y108.688 E4.8994
G1 X102.046 Y111.312 E5.0471
G1 X102.758 Y111.312 E5.0755
G1 X100.135 Y108.688 E5.2232
G1 X100.848 Y108.688 E5.2516
G1 X103.471 Y111.312 E5.3993
G1 X104.184 Y111.312 E5.4277
G1 X101.561 Y108.688 E5.5754
G1 X102.274 Y108.688 E5.6037
G1 X104.897 Y111.312 E5.7514
G1 X105.610 Y111.312 E5.7798
G1 X102.986 Y108.688 E5.9275
G1 X103.699 Y108.688 E5.9559
G1 X106.322 Y111.312 E6.1036
G1 X107.035 Y111.312 E6.1319
G1 X104.412 Y108.688 E6.2796
G1 X105.125 Y108.688 E6.3080
G1 X107.748 Y111.312 E6.4557
G1 X108.461 Y111.312 E6.4841
G1 X105.837 Y108.688 E6.6318
G1 X106.550 Y108.688 E6.6602
G1 X109.173 Y111.312 E6.8079
G1 X109.886 Y111.312 E6.8362
G1 X107.263 Y108.688 E6.9839
G1 X107.976 Y108.688 E7.0123
G1 X110.599 Y111.312 E7.1600
G1 X111.312 Y111.312 E7.1884
G1 X108.688 Y108.688 E7.3361
G1 X109.401 Y108.688 E7.3644
G1 X112.024 Y111.312 E7.5121
G1 X112.737 Y111.312 E7.5405
G1 X110.114 Y108.688 E7.6882
G1 X110.827 Y108.688 E7.7166
G1 X113.450 Y111.312 E7.8643
G1 X114.163 Y111.312 E7.8927
G1 X111.539 Y108.688 E8.0404
G1 X112.252 Y108.688 E8.0687
G1 X114.875 Y111.312 E8.2164
G1 X115.588 Y111.312 E8.2448
G1 X112.965 Y108.688 E8.3925
G1 X113.678 Y108.688 E8.4209
G1 X116.301 Y111.312 E8.5686
G1 X117.014 Y111.312 E8.5969
G1 X114.391 Y108.688 E8.7446
G1 X115.103 Y108.688 E8.7730
G1 X117.726 Y111.312 E8.9207
G1 X118.439 Y111.312 E8.9491
G1 X115.816 Y108.688 E9.0968
G1 X116.529 Y108.688 E9.1252
G1 X119.152 Y111.312 E9.2729
G1 X119.865 Y111.312 E9.3012
G1 X117.242 Y108.688 E9.4489
G1 X117.954 Y108.688 E9.4773
G1 X120.578 Y111.312 E9.6250
G1 X121.290 Y111.312 E9.6534
G1 X118.667 Y108.688 E9.8011
G1 X119.380 Y108.688 E9.8294
G1 X122.003 Y111.312 E9.9771
G1 X122.716 Y111.312 E10.0055
G1 X120.093 Y108.688 E10.1532
G1 X120.805 Y108.688 E10.1816
G1 X123.429 Y111.312 E10.3293
G1 X124.141 Y111.312 E10.3577
G1 X121.518 Y108.688 E10.5054
G1 X122.231 Y108.688 E10.5337
G1 X124.854 Y111.312 E10.6814
G1 X125.567 Y111.312 E10.7098
G1 X122.944 Y108.688 E10.8575
G1 X123.656 Y108.688 E10.8859
G1 X126.280 Y111.312 E11.0336
G1 X126.992 Y111.312 E11.0619
G1 X124.369 Y108.688 E11.2096
G1 X125.082 Y108.688 E11.2380
G1 X127.705 Y111.312 E11.3857
G1 X128.418 Y111.312 E11.4141
G1 X125.795 Y108.688 E11.5618
G1 X126.508 Y108.688 E11.5902
G1 X129.131 Y111.312 E11.7379
G1 X129.843 Y111.312 E11.7662
G1 X127.220 Y108.688 E11.9139
G1 X127.933 Y108.688 E11.9423
G1 X130.556 Y111.312 E12.0900
G1 X131.269 Y111.312 E12.1184
G1 X128.646 Y108.688 E12.2661
G1 X129.359 Y108.688 E12.2944
G1 X131.982 Y111.312 E12.4421
G1 X132.695 Y111.312 E12.4705
G1 X130.071 Y108.688 E12.6182
G1 X130.784 Y108.688 E12.6466
G1 X133.407 Y111.312 E12.7943
G1 X134.120 Y111.312 E12.8227
G1 X131.497 Y108.688 E12.9704
G1 X132.210 Y108.688 E12.9987
G1 X134.833 Y111.312 E13.1464
G1 X135.546 Y111.312 E13.1748
G1 X132.922 Y108.688 E13.3225
G1 X133.635 Y108.688 E13.3509
G1 X136.258 Y111.312 E13.4986
G1 X136.971 Y111.312 E13.5269
G1 X134.348 Y108.688 E13.6746
G1 X135.061 Y108.688 E13.7030
G1 X137.684 Y111.312 E13.8507
G1 X138.397 Y111.312 E13.8791
G1 X135.773 Y108.688 E14.0268
G1 X136.486 Y108.688 E14.0552
G1 X139.109 Y111.312 E14.2029
G1 X139.312 Y111.312 E14.2109
G1 X139.312 Y110.801 E14.2312
G1 X137.199 Y108.688 E14.3502
G1 X137.912 Y108.688 E14.3786
G1 X139.312 Y110.088 E14.4574
G1 X139.312 Y109.376 E14.4857
G1 X138.766 Y108.830 E14.5165
G1 X138.624 Y108.688 F1152
G92 E0.0000
G1 E-5.0000 F1800
; layer 2, Z = 0.390
M106 S255
M104 S195 T0
; feature skirt
; tool H0.200 W0.480
G1 Z1.190 F1002
G1 X76.360 Y114.093 F4800
G1 Z0.390 F1002
G1 E0.0000 F1800
G92 E0.0000
G1 X76.360 Y105.907 E0.3268 F3600
G1 X77.906 Y104.360 E0.4140
G1 X142.094 Y104.360 E2.9759
G1 X143.640 Y105.906 E3.0632
G1 X143.640 Y114.094 E3.3899
G1 X142.094 Y115.640 E3.4772
G1 X77.906 Y115.640 E6.0391
G1 X76.360 Y114.093 E6.1264
G92 E0.0000
G1 E-5.0000 F1800
G1 Z1.390 F1002
G1 X76.840 Y113.895 F4800
G1 Z0.390 F1002
G1 E0.0000 F1800
G92 E0.0000
G1 X76.840 Y106.105 E0.3109 F3600
G1 X78.105 Y104.840 E0.3823
G1 X141.895 Y104.840 E2.9283
G1 X143.160 Y106.105 E2.9997
G1 X143.160 Y113.895 E3.3106
G1 X141.895 Y115.160 E3.3820
G1 X78.105 Y115.160 E5.9280
G1 X76.840 Y113.895 E5.9994
G92 E0.0000
G1 E-5.0000 F1800
G1 Z1.390 F1002
G1 X77.320 Y113.696 F4800
G1 Z0.390 F1002
G1 E0.0000 F1800
G92 E0.0000
G1 X77.320 Y106.304 E0.2950 F3600
G1 X78.304 Y105.320 E0.3506
G1 X141.696 Y105.320 E2.8807
G1 X142.680 Y106.304 E2.9362
G1 X142.680 Y113.696 E3.2312
G1 X141.696 Y114.680 E3.2868
G1 X78.304 Y114.680 E5.8169
G1 X77.320 Y113.696 E5.8724
G92 E0.0000
G1 E-5.0000 F1800
G1 Z1.390 F1002
G1 X77.800 Y113.497 F4800
G1 Z0.390 F1002
G1 E0.0000 F1800
G92 E0.0000
G1 X77.800 Y106.503 E0.2791 F3600
G1 X78.503 Y105.800 E0.3188
G1 X141.497 Y105.800 E2.8331
G1 X142.200 Y106.503 E2.8727
G1 X142.200 Y113.497 E3.1519
G1 X141.497 Y114.200 E3.1916
G1 X78.503 Y114.200 E5.7058
G1 X77.800 Y113.497 E5.7455
G92 E0.0000
G1 E-5.0000 F1800
G1 Z1.390 F1002
G1 X78.280 Y113.298 F4800
G1 Z0.390 F1002
G1 E0.0000 F1800
