; G-Code generated by Simplify3D(R) Version 4.1.2
; Oct 30, 2021 at 2:06:23 PM
; Settings Summary
;   processName,Process1
;   applyToModels,irregular box battery box
;   profileName,Ender 3 (modified)
;   profileVersion,2018-06-08 13:27:13
;   baseProfile,Creality CR-10 Mini
;   printMaterial,PLA
;   printQuality,Medium
;   printExtruders,
;   extruderName,Primary Extruder
;   extruderToolheadNumber,0
;   extruderDiameter,0.4
;   extruderAutoWidth,1
;   extruderWidth,0.48
;   extrusionMultiplier,1
;   extruderUseRetract,1
;   extruderRetractionDistance,5
;   extruderExtraRestartDistance,0
;   extruderRetractionZLift,1
;   extruderRetractionSpeed,1800
;   extruderUseCoasting,1
;   extruderCoastingDistance,0.2
;   extruderUseWipe,0
;   extruderWipeDistance,5
;   primaryExtruder,0
;   layerHeight,0.2
;   topSolidLayers,4
;   bottomSolidLayers,4
;   perimeterOutlines,3
;   printPerimetersInsideOut,1
;   startPointOption,3
;   startPointOriginX,0
;   startPointOriginY,110
;   sequentialIslands,0
;   spiralVaseMode,0
;   firstLayerHeightPercentage,95
;   firstLayerWidthPercentage,105
;   firstLayerUnderspeed,0.4
;   useRaft,0
;   raftExtruder,0
;   raftTopLayers,2
;   raftBaseLayers,1
;   raftOffset,3
;   raftSeparationDistance,0.14
;   raftTopInfill,100
;   aboveRaftSpeedMultiplier,0.3
;   useSkirt,1
;   skirtExtruder,0
;   skirtLayers,2
;   skirtOutlines,6
;   skirtOffset,0
;   usePrimePillar,0
;   primePillarExtruder,999
;   primePillarWidth,12
;   primePillarLocation,7
;   primePillarSpeedMultiplier,1
;   useOozeShield,0
;   oozeShieldExtruder,999
;   oozeShieldOffset,2
;   oozeShieldOutlines,1
;   oozeShieldSidewallShape,1
;   oozeShieldSidewallAngle,30
;   oozeShieldSpeedMultiplier,1
;   infillExtruder,0
;   internalInfillPattern,Rectilinear
;   externalInfillPattern,Rectilinear
;   infillPercentage,30
;   outlineOverlapPercentage,15
;   infillExtrusionWidthPercentage,100
;   minInfillLength,5
;   infillLayerInterval,1
;   internalInfillAngles,45,-45
;   overlapInternalInfillAngles,0
;   externalInfillAngles,45,-45
;   generateSupport,1
;   supportExtruder,0
;   supportInfillPercentage,15
;   supportExtraInflation,1
;   supportBaseLayers,2
;   denseSupportExtruder,0
;   denseSupportLayers,2
;   denseSupportInfillPercentage,70
;   supportLayerInterval,1
;   supportHorizontalPartOffset,0.3
;   supportUpperSeparationLayers,1
;   supportLowerSeparationLayers,1
;   supportType,0
;   supportGridSpacing,4
;   maxOverhangAngle,45
;   supportAngles,45
;   temperatureName,Primary Extruder,Heated Bed
;   temperatureNumber,0,0
;   temperatureSetpointCount,2,1
;   temperatureSetpointLayers,1,2,1
;   temperatureSetpointTemperatures,210,195,50
;   temperatureStabilizeAtStartup,1,1
;   temperatureHeatedBed,0,1
;   fanLayers,1,2
;   fanSpeeds,0,100
;   blipFanToFullPower,0
;   adjustSpeedForCooling,1
;   minSpeedLayerTime,15
;   minCoolingSpeedSlowdown,20
;   increaseFanForCooling,0
;   minFanLayerTime,45
;   maxCoolingFanSpeed,100
;   increaseFanForBridging,0
;   bridgingFanSpeed,100
;   use5D,1
;   relativeEdistances,0
;   allowEaxisZeroing,1
;   independentExtruderAxes,0
;   includeM10123,0
;   stickySupport,1
;   applyToolheadOffsets,0
;   gcodeXoffset,0
;   gcodeYoffset,0
;   gcodeZoffset,0
;   overrideMachineDefinition,1
;   machineTypeOverride,0
;   strokeXoverride,220
;   strokeYoverride,220
;   strokeZoverride,250
;   originOffsetXoverride,0
;   originOffsetYoverride,0
;   originOffsetZoverride,0
;   homeXdirOverride,-1
;   homeYdirOverride,-1
;   homeZdirOverride,-1
;   flipXoverride,1
;   flipYoverride,-1
;   flipZoverride,1
;   toolheadOffsets,0,0|0,0|0,0|0,0|0,0|0,0
;   overrideFirmwareConfiguration,1
;   firmwareTypeOverride,RepRap (Marlin/Repetier/Sprinter)
;   GPXconfigOverride,r2
;   baudRateOverride,115200
;   overridePrinterModels,1
;   printerModelsOverride
;   startingGcode,G28 ; home all axes,G1 Z5 F3000 ; lift,G1 X5 Y10 F1500 ; move to prime,G1 Z0.2 F3000 ; get ready to prime,G92 E0 ; reset extrusion distance,G1 Y80 E10 F600 ; prime nozzle,G1 Y100 F5000 ; quick wipe
;   layerChangeGcode,
;   retractionGcode,
;   toolChangeGcode,
;   endingGcode,G28 X0 ; home x axis,M106 S0 ; turn off cooling fan,M104 S0 ; turn off extruder,M140 S0 ; turn off bed,M84 ; disable motors
;   exportFileFormat,gcode
;   celebration,0
;   celebrationSong,Funky Town
;   postProcessing,
;   defaultSpeed,3600
;   outlineUnderspeed,0.5
;   solidInfillUnderspeed,0.8
;   supportUnderspeed,0.8
;   rapidXYspeed,4800
;   rapidZspeed,1002
;   minBridgingArea,50
;   bridgingExtraInflation,0
;   bridgingExtrusionMultiplier,1
;   bridgingSpeedMultiplier,1
;   useFixedBridgingAngle,0
;   fixedBridgingAngle,0
;   applyBridgingToPerimeters,0
;   filamentDiameters,1.75|1.75|1.75|1.75|1.75|1.75
;   filamentPricesPerKg,46|46|46|46|46|46
;   filamentDensities,1.25|1.25|1.25|1.25|1.25|1.25
;   useMinPrintHeight,0
;   minPrintHeight,0
;   useMaxPrintHeight,0
;   maxPrintHeight,0
;   useDiaphragm,0
;   diaphragmLayerInterval,20
;   robustSlicing,1
;   mergeAllIntoSolid,0
;   onlyRetractWhenCrossingOutline,1
;   retractBetweenLayers,1
;   useRetractionMinTravel,0
;   retractionMinTravel,3
;   retractWhileWiping,0
;   onlyWipeOutlines,1
;   avoidCrossingOutline,0
;   maxMovementDetourFactor,3
;   toolChangeRetractionDistance,12
;   toolChangeExtraRestartDistance,-0.5
;   toolChangeRetractionSpeed,600
;   externalThinWallType,0
;   internalThinWallType,2
;   thinWallAllowedOverlapPercentage,10
;   singleExtrusionMinLength,1
;   singleExtrusionMinPrintingWidthPercentage,50
;   singleExtrusionMaxPrintingWidthPercentage,200
;   singleExtrusionEndpointExtension,0.2
;   horizontalSizeCompensation,0
G90
M82
M106 S0
M140 S50
M190 S50
M104 S210 T0
M109 S210 T0
G28 ; home all axes
G1 Z5 F3000 ; lift
G1 X5 Y10 F1500 ; move to prime
G1 Z0.2 F3000 ; get ready to prime
G92 E0 ; reset extrusion distance
G1 Y80 E10 F600 ; prime nozzle
G1 Y100 F5000 ; quick wipe
; process Process1
; layer 1, Z = 0.190
T0
G92 E0.0000
G1 E-5.0000 F1800
; feature skirt
; tool H0.190 W0.504
G1 Z1.000 F1002
G1 X71.978 Y138.898 F4800
G1 Z0.190 F1002
G1 E0.0000 F1800
G92 E0.0000
G1 X71.978 Y81.102 E2.3010 F1440
G1 X73.602 Y79.478 E2.3924
G1 X146.398 Y79.478 E5.2906
G1 X148.022 Y81.102 E5.3821
G1 X148.022 Y138.898 E7.6831
G1 X146.398 Y140.522 E7.7745
G1 X73.602 Y140.522 E10.6727
G1 X71.978 Y138.898 E10.7641
G92 E0.0000
G1 E-5.0000 F1800
G1 Z1.190 F1002
G1 X72.482 Y138.689 F4800
G1 Z0.190 F1002
G1 E0.0000 F1800
G92 E0.0000
G1 X72.482 Y81.311 E2.2844 F1440
G1 X73.811 Y79.982 E2.3592
G1 X146.189 Y79.982 E5.2408
G1 X147.518 Y81.311 E5.3156
G1 X147.518 Y138.689 E7.6000
G1 X146.189 Y140.018 E7.6748
G1 X73.811 Y140.018 E10.5563
G1 X72.482 Y138.689 E10.6311
G92 E0.0000
G1 E-5.0000 F1800
G1 Z1.190 F1002
G1 X72.986 Y138.481 F4800
G1 Z0.190 F1002
G1 E0.0000 F1800
G92 E0.0000
G1 X72.986 Y81.519 E2.2678 F1440
G1 X74.019 Y80.486 E2.3259
G1 X145.981 Y80.486 E5.1909
G1 X147.014 Y81.519 E5.2491
G1 X147.014 Y138.481 E7.5168
G1 X145.981 Y139.514 E7.5750
G1 X74.019 Y139.514 E10.4400
G1 X72.986 Y138.481 E10.4982
G92 E0.0000
G1 E-5.0000 F1800
G1 Z1.190 F1002
G1 X73.490 Y138.272 F4800
G1 Z0.190 F1002
G1 E0.0000 F1800
G92 E0.0000
G1 X73.490 Y81.728 E2.2511 F1440
G1 X74.228 Y80.990 E2.2927
G1 X145.772 Y80.990 E5.1410
G1 X146.510 Y81.728 E5.1826
G1 X146.510 Y138.272 E7.4337
G1 X145.772 Y139.010 E7.4753
G1 X74.228 Y139.010 E10.3236
G1 X73.490 Y138.272 E10.3652
G92 E0.0000
G1 E-5.0000 F1800
G1 Z1.190 F1002
G1 X73.994 Y138.063 F4800
G1 Z0.190 F1002
G1 E0.0000 F1800
G92 E0.0000
G1 X73.994 Y81.937 E2.2345 F1440
G1 X74.437 Y81.494 E2.2595
G1 X145.563 Y81.494 E5.0912
G1 X146.006 Y81.937 E5.1161
G1 X146.006 Y138.063 E7.3506
G1 X145.563 Y138.506 E7.3756
G1 X74.437 Y138.506 E10.2073
G1 X73.994 Y138.063 E10.2322
G92 E0.0000
G1 E-5.0000 F1800
G1 Z1.190 F1002
G1 X74.498 Y137.854 F4800
G1 Z0.190 F1002
G1 E0.0000 F1800
G92 E0.0000
G1 X74.498 Y82.146 E2.2179 F1440
G1 X74.646 Y81.998 E2.2262
G1 X145.354 Y81.998 E5.0413
G1 X145.502 Y82.146 E5.0496
G1 X145.502 Y137.854 E7.2675
G1 X145.354 Y138.002 E7.2758
G1 X74.646 Y138.002 E10.0909
G1 X74.498 Y137.854 E10.0992
G92 E0.0000
G1 E-5.0000 F1800
; feature inner perimeter
G1 Z1.190 F1002
G1 X76.010 Y83.510 F4800
G1 Z0.190 F1002
G1 E0.0000 F1800
G92 E0.0000
G1 X143.990 Y83.510 E2.7064 F1080
G1 X143.990 Y136.490 E4.8157
G1 X76.010 Y136.490 E7.5222
G1 X76.010 Y83.710 E9.6234
G1 X76.010 Y83.510 F1080
G1 X75.506 Y83.006 F4800
G92 E0.0000
G1 X144.494 Y83.006 E2.7466 F1080
G1 X144.494 Y136.994 E4.8960
G1 X75.506 Y136.994 E7.6425
G1 X75.506 Y83.206 E9.7840
G1 X75.506 Y83.006 F1080
; feature outer perimeter
G1 X75.002 Y82.502 F4800
G92 E0.0000
G1 X144.998 Y82.502 E2.7867 F720
G1 X144.998 Y137.498 E4.9762
G1 X75.002 Y137.498 E7.7629
G1 X75.002 Y82.702 E9.9445
G1 X75.002 Y82.502 F720
; feature inner perimeter
G1 X77.240 Y84.740 F4800
G92 E0.0000
G1 X77.240 Y93.260 E0.3392 F1080
G1 X142.760 Y93.260 E2.9477
G1 X142.760 Y84.740 E3.2869
G1 X77.440 Y84.740 E5.8875
G1 X77.240 Y84.740 F1080
G1 X77.744 Y85.244 F4800
G92 E0.0000
G1 X77.744 Y92.756 E0.2991 F1080
G1 X142.256 Y92.756 E2.8674
G1 X142.256 Y85.244 E3.1665
G1 X77.944 Y85.244 E5.7269
G1 X77.744 Y85.244 F1080
; feature outer perimeter
G1 X78.248 Y85.748 F4800
G92 E0.0000
G1 X78.248 Y92.252 E0.2589 F720
G1 X141.752 Y92.252 E2.7872
G1 X141.752 Y85.748 E3.0461
G1 X78.448 Y85.748 E5.5664
G1 X78.248 Y85.748 F720
; feature inner perimeter
G1 X77.240 Y125.740 F4800
G92 E0.0000
G1 X77.240 Y135.260 E0.3790 F1080
G1 X142.760 Y135.260 E2.9875
G1 X142.760 Y125.740 E3.3665
G1 X77.440 Y125.740 E5.9671
G1 X77.240 Y125.740 F1080
G1 X77.744 Y126.244 F4800
G92 E0.0000
G1 X77.744 Y134.756 E0.3389 F1080
G1 X142.256 Y134.756 E2.9073
G1 X142.256 Y126.244 E3.2461
G1 X77.944 Y126.244 E5.8066
G1 X77.744 Y126.244 F1080
; feature outer perimeter
G1 X78.248 Y126.748 F4800
G92 E0.0000
G1 X78.248 Y134.252 E0.2988 F720
G1 X141.752 Y134.252 E2.8270
G1 X141.752 Y126.748 E3.1257
G1 X78.448 Y126.748 E5.6460
G1 X78.248 Y126.748 F720
; feature solid layer
G1 X78.008 Y93.688 F4800
G92 E0.0000
G1 X109.631 Y125.312 E1.7805 F1152
G1 X110.344 Y125.312 E1.8089
G1 X78.720 Y93.688 E3.5894
G1 X79.433 Y93.688 E3.6177
G1 X111.056 Y125.312 E5.3982
G1 X111.769 Y125.312 E5.4266
G1 X80.146 Y93.688 E7.2071
G1 X80.859 Y93.688 E7.2355
G1 X112.482 Y125.312 E9.0159
G1 X113.195 Y125.312 E9.0443
G1 X81.571 Y93.688 E10.8248
G1 X82.284 Y93.688 E10.8532
G1 X113.907 Y125.312 E12.6337
G1 X114.620 Y125.312 E12.6621
G1 X82.997 Y93.688 E14.4425
G1 X83.710 Y93.688 E14.4709
G1 X115.333 Y125.312 E16.2514
G1 X116.046 Y125.312 E16.2798
G1 X84.422 Y93.688 E18.0603
G1 X85.135 Y93.688 E18.0886
G1 X116.758 Y125.312 E19.8691
G1 X117.471 Y125.312 E19.8975
G1 X85.848 Y93.688 E21.6780
G1 X86.561 Y93.688 E21.7064
G1 X118.184 Y125.312 E23.4869
G1 X118.897 Y125.312 E23.5152
G1 X87.274 Y93.688 E25.2957
G1 X87.986 Y93.688 E25.3241
G1 X119.610 Y125.312 E27.1046
G1 X120.322 Y125.312 E27.1330
G1 X88.699 Y93.688 E28.9135
G1 X89.412 Y93.688 E28.9418
G1 X121.035 Y125.312 E30.7223
G1 X121.748 Y125.312 E30.7507
G1 X90.125 Y93.688 E32.5312
G1 X90.837 Y93.688 E32.5596
G1 X122.461 Y125.312 E34.3400
G1 X123.173 Y125.312 E34.3684
G1 X91.550 Y93.688 E36.1489
G1 X92.263 Y93.688 E36.1773
G1 X123.886 Y125.312 E37.9578
G1 X124.599 Y125.312 E37.9862
G1 X92.976 Y93.688 E39.7666
G1 X93.688 Y93.688 E39.7950
G1 X125.312 Y125.312 E41.5755
G1 X126.024 Y125.312 E41.6039
G1 X94.401 Y93.688 E43.3844
G1 X95.114 Y93.688 E43.4127
G1 X126.737 Y125.312 E45.1932
G1 X127.450 Y125.312 E45.2216
G1 X95.827 Y93.688 E47.0021
G1 X96.539 Y93.688 E47.0305
G1 X128.163 Y125.312 E48.8110
G1 X128.875 Y125.312 E48.8393
G1 X97.252 Y93.688 E50.6198
G1 X97.965 Y93.688 E50.6482
G1 X129.588 Y125.312 E52.4287
G1 X130.301 Y125.312 E52.4571
G1 X98.678 Y93.688 E54.2376
G1 X99.391 Y93.688 E54.2659
G1 X131.014 Y125.312 E56.0464
G1 X131.726 Y125.312 E56.0748
G1 X100.103 Y93.688 E57.8553
G1 X100.816 Y93.688 E57.8837
G1 X132.439 Y125.312 E59.6642
G1 X133.152 Y125.312 E59.6925
G1 X101.529 Y93.688 E61.4730
G1 X102.242 Y93.688 E61.5014
G1 X133.865 Y125.312 E63.2819
G1 X134.578 Y125.312 E63.3103
G1 X102.954 Y93.688 E65.0907
G1 X103.667 Y93.688 E65.1191
G1 X135.290 Y125.312 E66.8996
G1 X136.003 Y125.312 E66.9280
G1 X104.380 Y93.688 E68.7085
G1 X105.093 Y93.688 E68.7368
G1 X136.716 Y125.312 E70.5173
G1 X137.429 Y125.312 E70.5457
G1 X105.805 Y93.688 E72.3262
G1 X106.518 Y93.688 E72.3546
G1 X138.141 Y125.312 E74.1351
G1 X138.854 Y125.312 E74.1634
G1 X107.231 Y93.688 E75.9439
G1 X107.944 Y93.688 E75.9723
G1 X139.567 Y125.312 E77.7528
G1 X140.280 Y125.312 E77.7812
G1 X108.656 Y93.688 E79.5617
G1 X109.369 Y93.688 E79.5900
G1 X140.992 Y125.312 E81.3705
G1 X141.705 Y125.312 E81.3989
G1 X110.082 Y93.688 E83.1794
G1 X110.795 Y93.688 E83.2078
G1 X142.418 Y125.312 E84.9883
G1 X143.131 Y125.312 E85.0166
G1 X111.649 Y93.830 E86.7892
G1 X111.508 Y93.688 F1152
G92 E0.0000
G1 E-5.0000 F1800
G1 Z1.190 F1002
G1 X143.562 Y85.828 F4800
G1 Z0.190 F1002
G1 E0.0000 F1800
G92 E0.0000
G1 X143.188 Y85.455 E0.0210 F1152
G1 X143.188 Y86.167 E0.0494
G1 X143.562 Y86.540 E0.0704
G1 X143.562 Y87.253 E0.0988
G1 X143.188 Y86.880 E0.1198
G1 X143.188 Y87.593 E0.1482
G1 X143.562 Y87.966 E0.1692
G1 X143.562 Y88.679 E0.1976
G1 X143.188 Y88.306 E0.2186
G1 X143.188 Y89.018 E0.2469
G1 X143.562 Y89.392 E0.2680
G1 X143.562 Y90.104 E0.2963
G1 X143.188 Y89.731 E0.3173
G1 X143.188 Y90.444 E0.3457
G1 X143.562 Y90.817 E0.3667
G1 X143.562 Y91.530 E0.3951
G1 X143.188 Y91.157 E0.4161
G1 X143.188 Y91.869 E0.4445
G1 X143.562 Y92.243 E0.4655
G1 X143.562 Y92.955 E0.4939
G1 X143.188 Y92.582 E0.5149
G1 X143.188 Y93.295 E0.5433
G1 X143.562 Y93.668 E0.5643
G1 X143.562 Y94.381 E0.5927
G1 X142.869 Y93.688 E0.6317
G1 X142.156 Y93.688 E0.6600
G1 X143.562 Y95.094 E0.7392
G1 X143.562 Y95.806 E0.7675
G1 X141.444 Y93.688 E0.8868
G1 X140.731 Y93.688 E0.9152
G1 X143.562 Y96.519 E1.0745
G1 X143.562 Y97.232 E1.1029
G1 X140.018 Y93.688 E1.3024
G1 X139.305 Y93.688 E1.3308
G1 X143.562 Y97.945 E1.5705
G1 X143.562 Y98.657 E1.5988
G1 X138.593 Y93.688 E1.8786
G1 X137.880 Y93.688 E1.9070
G1 X143.562 Y99.370 E2.2269
G1 X143.562 Y100.083 E2.2553
G1 X137.167 Y93.688 E2.6153
G1 X136.454 Y93.688 E2.6437
G1 X143.562 Y100.796 E3.0438
G1 X143.562 Y101.509 E3.0722
G1 X135.741 Y93.688 E3.5125
G1 X135.029 Y93.688 E3.5409
G1 X143.562 Y102.221 E4.0213
G1 X143.562 Y102.934 E4.0497
G1 X134.316 Y93.688 E4.5703
G1 X133.603 Y93.688 E4.5986
G1 X143.562 Y103.647 E5.1593
G1 X143.562 Y104.360 E5.1877
G1 X132.890 Y93.688 E5.7885
G1 X132.178 Y93.688 E5.8169
G1 X143.562 Y105.072 E6.4579
G1 X143.562 Y105.785 E6.4862
G1 X131.465 Y93.688 E7.1673
G1 X130.752 Y93.688 E7.1957
G1 X143.562 Y106.498 E7.9169
G1 X143.562 Y107.211 E7.9453
G1 X130.039 Y93.688 E8.7066
G1 X129.327 Y93.688 E8.7350
G1 X143.562 Y107.923 E9.5365
G1 X143.562 Y108.636 E9.5649
G1 X128.614 Y93.688 E10.4065
G1 X127.901 Y93.688 E10.4349
G1 X143.562 Y109.349 E11.3166
G1 X143.562 Y110.062 E11.3450
G1 X127.188 Y93.688 E12.2668
G1 X126.476 Y93.688 E12.2952
G1 X143.562 Y110.774 E13.2572
G1 X143.562 Y111.487 E13.2856
G1 X125.763 Y93.688 E14.2877
G1 X125.050 Y93.688 E14.3161
G1 X143.562 Y112.200 E15.3584
G1 X143.562 Y112.913 E15.3867
G1 X124.337 Y93.688 E16.4691
G1 X123.624 Y93.688 E16.4975
G1 X143.562 Y113.626 E17.6200
G1 X143.562 Y114.338 E17.6484
G1 X122.912 Y93.688 E18.8111
G1 X122.199 Y93.688 E18.8394
G1 X143.562 Y115.051 E20.0422
G1 X143.562 Y115.764 E20.0706
G1 X121.486 Y93.688 E21.3135
G1 X120.773 Y93.688 E21.3419
G1 X143.562 Y116.477 E22.6249
