; G-Code generated by Simplify3D(R) Version 4.1.2
; Oct 30, 2021 at 2:18:18 PM
; Settings Summary
;   processName,Process1
;   applyToModels,irregular box logo 1
;   profileName,Ender 3 (modified)
;   profileVersion,2018-06-08 13:27:13
;   baseProfile,Creality CR-10 Mini
;   printMaterial,PLA
;   printQuality,Medium
;   printExtruders,
;   extruderName,Primary Extruder
;   extruderToolheadNumber,0
;   extruderDiameter,0.4
;   extruderAutoWidth,1
;   extruderWidth,0.48
;   extrusionMultiplier,1
;   extruderUseRetract,1
;   extruderRetractionDistance,5
;   extruderExtraRestartDistance,0
;   extruderRetractionZLift,1
;   extruderRetractionSpeed,1800
;   extruderUseCoasting,1
;   extruderCoastingDistance,0.2
;   extruderUseWipe,0
;   extruderWipeDistance,5
;   primaryExtruder,0
;   layerHeight,0.2
;   topSolidLayers,4
;   bottomSolidLayers,4
;   perimeterOutlines,3
;   printPerimetersInsideOut,1
;   startPointOption,3
;   startPointOriginX,0
;   startPointOriginY,110
;   sequentialIslands,0
;   spiralVaseMode,0
;   firstLayerHeightPercentage,95
;   firstLayerWidthPercentage,105
;   firstLayerUnderspeed,0.4
;   useRaft,0
;   raftExtruder,0
;   raftTopLayers,2
;   raftBaseLayers,1
;   raftOffset,3
;   raftSeparationDistance,0.14
;   raftTopInfill,100
;   aboveRaftSpeedMultiplier,0.3
;   useSkirt,1
;   skirtExtruder,0
;   skirtLayers,2
;   skirtOutlines,6
;   skirtOffset,0
;   usePrimePillar,0
;   primePillarExtruder,999
;   primePillarWidth,12
;   primePillarLocation,7
;   primePillarSpeedMultiplier,1
;   useOozeShield,0
;   oozeShieldExtruder,999
;   oozeShieldOffset,2
;   oozeShieldOutlines,1
;   oozeShieldSidewallShape,1
;   oozeShieldSidewallAngle,30
;   oozeShieldSpeedMultiplier,1
;   infillExtruder,0
;   internalInfillPattern,Rectilinear
;   externalInfillPattern,Rectilinear
;   infillPercentage,30
;   outlineOverlapPercentage,15
;   infillExtrusionWidthPercentage,100
;   minInfillLength,5
;   infillLayerInterval,1
;   internalInfillAngles,45,-45
;   overlapInternalInfillAngles,0
;   externalInfillAngles,45,-45
;   generateSupport,1
;   supportExtruder,0
;   supportInfillPercentage,15
;   supportExtraInflation,1
;   supportBaseLayers,2
;   denseSupportExtruder,0
;   denseSupportLayers,2
;   denseSupportInfillPercentage,70
;   supportLayerInterval,1
;   supportHorizontalPartOffset,0.3
;   supportUpperSeparationLayers,1
;   supportLowerSeparationLayers,1
;   supportType,0
;   supportGridSpacing,4
;   maxOverhangAngle,45
;   supportAngles,45
;   temperatureName,Primary Extruder,Heated Bed
;   temperatureNumber,0,0
;   temperatureSetpointCount,2,1
;   temperatureSetpointLayers,1,2,1
;   temperatureSetpointTemperatures,210,195,50
;   temperatureStabilizeAtStartup,1,1
;   temperatureHeatedBed,0,1
;   fanLayers,1,2
;   fanSpeeds,0,100
;   blipFanToFullPower,0
;   adjustSpeedForCooling,1
;   minSpeedLayerTime,15
;   minCoolingSpeedSlowdown,20
;   increaseFanForCooling,0
;   minFanLayerTime,45
;   maxCoolingFanSpeed,100
;   increaseFanForBridging,0
;   bridgingFanSpeed,100
;   use5D,1
;   relativeEdistances,0
;   allowEaxisZeroing,1
;   independentExtruderAxes,0
;   includeM10123,0
;   stickySupport,1
;   applyToolheadOffsets,0
;   gcodeXoffset,0
;   gcodeYoffset,0
;   gcodeZoffset,0
;   overrideMachineDefinition,1
;   machineTypeOverride,0
;   strokeXoverride,220
;   strokeYoverride,220
;   strokeZoverride,250
;   originOffsetXoverride,0
;   originOffsetYoverride,0
;   originOffsetZoverride,0
;   homeXdirOverride,-1
;   homeYdirOverride,-1
;   homeZdirOverride,-1
;   flipXoverride,1
;   flipYoverride,-1
;   flipZoverride,1
;   toolheadOffsets,0,0|0,0|0,0|0,0|0,0|0,0
;   overrideFirmwareConfiguration,1
;   firmwareTypeOverride,RepRap (Marlin/Repetier/Sprinter)
;   GPXconfigOverride,r2
;   baudRateOverride,115200
;   overridePrinterModels,1
;   printerModelsOverride
;   startingGcode,G28 ; home all axes,G1 Z5 F3000 ; lift,G1 X5 Y10 F1500 ; move to prime,G1 Z0.2 F3000 ; get ready to prime,G92 E0 ; reset extrusion distance,G1 Y80 E10 F600 ; prime nozzle,G1 Y100 F5000 ; quick wipe
;   layerChangeGcode,
;   retractionGcode,
;   toolChangeGcode,
;   endingGcode,G28 X0 ; home x axis,M106 S0 ; turn off cooling fan,M104 S0 ; turn off extruder,M140 S0 ; turn off bed,M84 ; disable motors
;   exportFileFormat,gcode
;   celebration,0
;   celebrationSong,Funky Town
;   postProcessing,
;   defaultSpeed,3600
;   outlineUnderspeed,0.5
;   solidInfillUnderspeed,0.8
;   supportUnderspeed,0.8
;   rapidXYspeed,4800
;   rapidZspeed,1002
;   minBridgingArea,50
;   bridgingExtraInflation,0
;   bridgingExtrusionMultiplier,1
;   bridgingSpeedMultiplier,1
;   useFixedBridgingAngle,0
;   fixedBridgingAngle,0
;   applyBridgingToPerimeters,0
;   filamentDiameters,1.75|1.75|1.75|1.75|1.75|1.75
;   filamentPricesPerKg,46|46|46|46|46|46
;   filamentDensities,1.25|1.25|1.25|1.25|1.25|1.25
;   useMinPrintHeight,0
;   minPrintHeight,0
;   useMaxPrintHeight,0
;   maxPrintHeight,0
;   useDiaphragm,0
;   diaphragmLayerInterval,20
;   robustSlicing,1
;   mergeAllIntoSolid,0
;   onlyRetractWhenCrossingOutline,1
;   retractBetweenLayers,1
;   useRetractionMinTravel,0
;   retractionMinTravel,3
;   retractWhileWiping,0
;   onlyWipeOutlines,1
;   avoidCrossingOutline,0
;   maxMovementDetourFactor,3
;   toolChangeRetractionDistance,12
;   toolChangeExtraRestartDistance,-0.5
;   toolChangeRetractionSpeed,600
;   externalThinWallType,0
;   internalThinWallType,2
;   thinWallAllowedOverlapPercentage,10
;   singleExtrusionMinLength,1
;   singleExtrusionMinPrintingWidthPercentage,50
;   singleExtrusionMaxPrintingWidthPercentage,200
;   singleExtrusionEndpointExtension,0.2
;   horizontalSizeCompensation,0
G90
M82
M106 S0
M140 S50
M190 S50
M104 S210 T0
M109 S210 T0
G28 ; home all axes
G1 Z5 F3000 ; lift
G1 X5 Y10 F1500 ; move to prime
G1 Z0.2 F3000 ; get ready to prime
G92 E0 ; reset extrusion distance
G1 Y80 E10 F600 ; prime nozzle
G1 Y100 F5000 ; quick wipe
; process Process1
; layer 1, Z = 0.190
T0
G92 E0.0000
G1 E-5.0000 F1800
; feature skirt
; tool H0.190 W0.504
G1 Z1.000 F1002
G1 X75.538 Y167.887 F4800
G1 Z0.190 F1002
G1 E0.0000 F1800
G92 E0.0000
G1 X75.538 Y36.190 E5.2432 F1440
G1 X77.161 Y34.566 E5.3346
G1 X140.958 Y34.566 E7.8745
G1 X142.582 Y36.190 E7.9659
G1 X142.582 Y167.887 E13.2091
G1 X140.958 Y169.510 E13.3005
G1 X77.161 Y169.510 E15.8404
G1 X75.538 Y167.887 E15.9318
G92 E0.0000
G1 E-5.0000 F1800
G1 Z1.190 F1002
G1 X76.042 Y167.678 F4800
G1 Z0.190 F1002
G1 E0.0000 F1800
G92 E0.0000
G1 X76.042 Y36.398 E5.2265 F1440
G1 X77.370 Y35.070 E5.3013
G1 X140.749 Y35.070 E7.8246
G1 X142.078 Y36.398 E7.8994
G1 X142.078 Y167.678 E13.1260
G1 X140.749 Y169.006 E13.2008
G1 X77.370 Y169.006 E15.7240
G1 X76.042 Y167.678 E15.7988
G92 E0.0000
G1 E-5.0000 F1800
G1 Z1.190 F1002
G1 X76.546 Y167.469 F4800
G1 Z0.190 F1002
G1 E0.0000 F1800
G92 E0.0000
G1 X76.546 Y36.607 E5.2099 F1440
G1 X77.579 Y35.574 E5.2681
G1 X140.540 Y35.574 E7.7747
G1 X141.574 Y36.607 E7.8329
G1 X141.574 Y167.469 E13.0428
G1 X140.540 Y168.502 E13.1010
G1 X77.579 Y168.502 E15.6077
G1 X76.546 Y167.469 E15.6658
G92 E0.0000
G1 E-5.0000 F1800
G1 Z1.190 F1002
G1 X77.050 Y167.260 F4800
G1 Z0.190 F1002
G1 E0.0000 F1800
G92 E0.0000
G1 X77.050 Y36.816 E5.1933 F1440
G1 X77.788 Y36.078 E5.2349
G1 X140.332 Y36.078 E7.7249
G1 X141.070 Y36.816 E7.7664
G1 X141.070 Y167.260 E12.9597
G1 X140.332 Y167.998 E13.0013
G1 X77.788 Y167.998 E15.4913
G1 X77.050 Y167.260 E15.5329
G92 E0.0000
G1 E-5.0000 F1800
G1 Z1.190 F1002
G1 X77.554 Y167.051 F4800
G1 Z0.190 F1002
G1 E0.0000 F1800
G92 E0.0000
G1 X77.554 Y37.025 E5.1767 F1440
G1 X77.996 Y36.582 E5.2016
G1 X140.123 Y36.582 E7.6750
G1 X140.566 Y37.025 E7.6999
G1 X140.566 Y167.051 E12.8766
G1 X140.123 Y167.494 E12.9015
G1 X77.997 Y167.494 E15.3749
G1 X77.554 Y167.051 E15.3999
G92 E0.0000
G1 E-5.0000 F1800
G1 Z1.190 F1002
G1 X78.058 Y166.843 F4800
G1 Z0.190 F1002
G1 E0.0000 F1800
G92 E0.0000
G1 X78.058 Y37.233 E5.1601 F1440
G1 X78.205 Y37.086 E5.1684
G1 X139.914 Y37.086 E7.6251
G1 X140.062 Y37.233 E7.6334
G1 X140.062 Y166.843 E12.7935
G1 X139.914 Y166.990 E12.8018
G1 X78.205 Y166.990 E15.2586
G1 X78.058 Y166.843 E15.2669
G92 E0.0000
G1 E-5.0000 F1800
; feature inner perimeter
G1 Z1.190 F1002
G1 X79.570 Y165.478 F4800
G1 Z0.190 F1002
G1 E0.0000 F1800
G92 E0.0000
G1 X79.570 Y38.598 E5.0514 F1080
G1 X138.550 Y38.598 E7.3995
G1 X138.550 Y165.478 E12.4510
G1 X79.770 Y165.478 E14.7911
G1 X79.570 Y165.478 F1080
G1 X79.066 Y165.982 F4800
G92 E0.0000
G1 X79.066 Y38.094 E5.0915 F1080
G1 X139.054 Y38.094 E7.4798
G1 X139.054 Y165.982 E12.5714
G1 X79.266 Y165.982 E14.9517
G1 X79.066 Y165.982 F1080
; feature outer perimeter
G1 X78.562 Y166.486 F4800
G92 E0.0000
G1 X78.562 Y37.590 E5.1317 F720
G1 X139.558 Y37.590 E7.5601
G1 X139.558 Y166.486 E12.6917
G1 X78.762 Y166.486 E15.1122
G1 X78.562 Y166.486 F720
; feature solid layer
G1 X80.125 Y165.050 F4800
G92 E0.0000
G1 X79.998 Y164.923 E0.0071 F1152
G1 X79.998 Y164.210 E0.0355
G1 X80.838 Y165.050 E0.0828
G1 X81.551 Y165.050 E0.1112
G1 X79.998 Y163.497 E0.1986
G1 X79.998 Y162.785 E0.2270
G1 X82.263 Y165.050 E0.3545
G1 X82.976 Y165.050 E0.3829
G1 X79.998 Y162.072 E0.5506
G1 X79.998 Y161.359 E0.5789
G1 X83.689 Y165.050 E0.7867
G1 X84.402 Y165.050 E0.8151
G1 X79.998 Y160.646 E1.0630
G1 X79.998 Y159.934 E1.0914
G1 X85.114 Y165.050 E1.3795
G1 X85.827 Y165.050 E1.4079
G1 X79.998 Y159.221 E1.7360
G1 X79.998 Y158.508 E1.7644
G1 X86.540 Y165.050 E2.1328
G1 X87.253 Y165.050 E2.1611
G1 X79.998 Y157.795 E2.5696
G1 X79.998 Y157.083 E2.5980
G1 X87.965 Y165.050 E3.0465
G1 X88.678 Y165.050 E3.0749
G1 X79.998 Y156.370 E3.5636
G1 X79.998 Y155.657 E3.5920
G1 X89.391 Y165.050 E4.1209
G1 X90.104 Y165.050 E4.1492
G1 X79.998 Y154.944 E4.7182
G1 X79.998 Y154.231 E4.7466
G1 X90.816 Y165.050 E5.3557
G1 X91.529 Y165.050 E5.3841
G1 X79.998 Y153.519 E6.0333
G1 X79.998 Y152.806 E6.0617
G1 X92.242 Y165.050 E6.7511
G1 X92.955 Y165.050 E6.7795
G1 X79.998 Y152.093 E7.5090
G1 X79.998 Y151.380 E7.5373
G1 X93.667 Y165.050 E8.3070
G1 X94.380 Y165.050 E8.3353
G1 X79.998 Y150.668 E9.1451
G1 X79.998 Y149.955 E9.1735
G1 X95.093 Y165.050 E10.0234
G1 X95.806 Y165.050 E10.0518
G1 X79.998 Y149.242 E10.9418
G1 X79.998 Y148.529 E10.9702
G1 X96.519 Y165.050 E11.9003
G1 X97.231 Y165.050 E11.9287
G1 X79.998 Y147.817 E12.8990
G1 X79.998 Y147.104 E12.9274
G1 X97.944 Y165.050 E13.9378
G1 X98.657 Y165.050 E13.9662
G1 X79.998 Y146.391 E15.0167
G1 X79.998 Y145.678 E15.0451
G1 X99.370 Y165.050 E16.1358
G1 X100.082 Y165.050 E16.1641
G1 X79.998 Y144.966 E17.2950
G1 X79.998 Y144.253 E17.3233
G1 X100.795 Y165.050 E18.4943
G1 X101.508 Y165.050 E18.5226
G1 X79.998 Y143.540 E19.7337
G1 X79.998 Y142.827 E19.7621
G1 X102.221 Y165.050 E21.0133
G1 X102.933 Y165.050 E21.0417
G1 X79.998 Y142.115 E22.3330
G1 X79.998 Y141.402 E22.3614
G1 X103.646 Y165.050 E23.6929
G1 X104.359 Y165.050 E23.7212
G1 X79.998 Y140.689 E25.0928
G1 X79.998 Y139.976 E25.1212
G1 X105.072 Y165.050 E26.5329
G1 X105.784 Y165.050 E26.5613
G1 X79.998 Y139.263 E28.0132
G1 X79.998 Y138.551 E28.0415
G1 X106.497 Y165.050 E29.5335
G1 X107.210 Y165.050 E29.5619
G1 X79.998 Y137.838 E31.0940
G1 X79.998 Y137.125 E31.1224
G1 X107.923 Y165.050 E32.6947
G1 X108.636 Y165.050 E32.7230
G1 X79.998 Y136.412 E34.3354
G1 X79.998 Y135.700 E34.3638
G1 X109.348 Y165.050 E36.0163
G1 X110.061 Y165.050 E36.0447
G1 X79.998 Y134.987 E37.7373
G1 X79.998 Y134.274 E37.7657
G1 X110.774 Y165.050 E39.4985
G1 X111.487 Y165.050 E39.5269
G1 X79.998 Y133.561 E41.2998
G1 X79.998 Y132.849 E41.3281
G1 X112.199 Y165.050 E43.1412
G1 X112.912 Y165.050 E43.1696
G1 X79.998 Y132.136 E45.0227
G1 X79.998 Y131.423 E45.0511
G1 X113.625 Y165.050 E46.9444
G1 X114.338 Y165.050 E46.9728
G1 X79.998 Y130.710 E48.9062
G1 X79.998 Y129.998 E48.9346
G1 X115.050 Y165.050 E50.9081
G1 X115.763 Y165.050 E50.9365
G1 X79.998 Y129.285 E52.9502
G1 X79.998 Y128.572 E52.9786
G1 X116.476 Y165.050 E55.0324
G1 X117.189 Y165.050 E55.0608
G1 X79.998 Y127.859 E57.1547
G1 X79.998 Y127.146 E57.1831
G1 X117.901 Y165.050 E59.3172
G1 X118.614 Y165.050 E59.3456
G1 X79.998 Y126.434 E61.5198
G1 X79.998 Y125.721 E61.5482
G1 X119.327 Y165.050 E63.7625
G1 X120.040 Y165.050 E63.7909
G1 X79.998 Y125.008 E66.0454
G1 X79.998 Y124.295 E66.0737
G1 X120.753 Y165.050 E68.3683
G1 X121.465 Y165.050 E68.3967
G1 X79.998 Y123.583 E70.7315
G1 X79.998 Y122.870 E70.7598
G1 X122.178 Y165.050 E73.1347
G1 X122.891 Y165.050 E73.1631
G1 X79.998 Y122.157 E75.5781
G1 X79.998 Y121.444 E75.6065
G1 X123.604 Y165.050 E78.0616
G1 X124.316 Y165.050 E78.0900
G1 X79.998 Y120.732 E80.5852
G1 X79.998 Y120.019 E80.6136
G1 X125.029 Y165.050 E83.1490
G1 X125.742 Y165.050 E83.1774
G1 X79.998 Y119.306 E85.7529
G1 X79.998 Y118.593 E85.7813
G1 X126.455 Y165.050 E88.3969
G1 X127.167 Y165.050 E88.4253
G1 X79.998 Y117.881 E91.0811
G1 X79.998 Y117.168 E91.1095
G1 X127.880 Y165.050 E93.8054
G1 X128.593 Y165.050 E93.8338
G1 X79.998 Y116.455 E96.5698
G1 X79.998 Y115.742 E96.5982
G1 X129.306 Y165.050 E99.3744
G1 X130.018 Y165.050 E99.4027
G1 X79.998 Y115.029 E102.2190
G1 X79.998 Y114.317 E102.2474
G1 X130.731 Y165.050 E105.1039
G1 X131.444 Y165.050 E105.1322
G1 X79.998 Y113.604 E108.0288
G1 X79.998 Y112.891 E108.0572
G1 X132.157 Y165.050 E110.9939
G1 X132.869 Y165.050 E111.0223
G1 X79.998 Y112.178 E113.9991
G1 X79.998 Y111.466 E114.0275
G1 X133.582 Y165.050 E117.0444
G1 X134.295 Y165.050 E117.0728
G1 X79.998 Y110.753 E120.1299
G1 X79.998 Y110.040 E120.1583
G1 X135.008 Y165.050 E123.2555
G1 X135.721 Y165.050 E123.2839
G1 X79.998 Y109.327 E126.4212
G1 X79.998 Y108.615 E126.4496
G1 X136.433 Y165.050 E129.6271
G1 X137.146 Y165.050 E129.6555
G1 X79.998 Y107.902 E132.8731
G1 X79.998 Y107.189 E132.9015
G1 X137.859 Y165.050 E136.1592
G1 X138.121 Y165.050 E136.1697
G1 X138.121 Y164.600 E136.1876
G1 X79.998 Y106.476 E139.4601
G1 X79.998 Y105.764 E139.4885
G1 X138.121 Y163.887 E142.7610
G1 X138.121 Y163.174 E142.7894
G1 X79.998 Y105.051 E146.0619
G1 X79.998 Y104.338 E146.0903
G1 X138.121 Y162.461 E149.3628
G1 X138.121 Y161.748 E149.3912
G1 X79.998 Y103.625 E152.6637
G1 X79.998 Y102.913 E152.6921
G1 X138.121 Y161.036 E155.9646
G1 X138.121 Y160.323 E155.9930
G1 X79.998 Y102.200 E159.2655
G1 X79.998 Y101.487 E159.2939
G1 X138.121 Y159.610 E162.5664
G1 X138.121 Y158.897 E162.5948
G1 X79.998 Y100.774 E165.8673
G1 X79.998 Y100.061 E165.8957
G1 X138.121 Y158.185 E169.1682
G1 X138.121 Y157.472 E169.1966
G1 X79.998 Y99.349 E172.4691
G1 X79.998 Y98.636 E172.4975
G1 X138.121 Y156.759 E175.7700
G1 X138.121 Y156.046 E175.7984
G1 X79.998 Y97.923 E179.0709
G1 X79.998 Y97.210 E179.0993
G1 X138.121 Y155.334 E182.3718
G1 X138.121 Y154.621 E182.4002
G1 X79.998 Y96.498 E185.6727
G1 X79.998 Y95.785 E185.7011
G1 X138.121 Y153.908 E188.9736
G1 X138.121 Y153.195 E189.0020
G1 X79.998 Y95.072 E192.2745
G1 X79.998 Y94.359 E192.3029
G1 X138.121 Y152.483 E195.5754
G1 X138.121 Y151.770 E195.6038
G1 X79.998 Y93.647 E198.8763
G1 X79.998 Y92.934 E198.9047
G1 X138.121 Y151.057 E202.1772
G1 X138.121 Y150.344 E202.2056
G1 X79.998 Y92.221 E205.4781
G1 X79.998 Y91.508 E205.5065
G1 X138.121 Y149.631 E208.7790
G1 X138.121 Y148.919 E208.8074
G1 X79.998 Y90.796 E212.0799
G1 X79.998 Y90.083 E212.1083
G1 X138.121 Y148.206 E215.3808
G1 X138.121 Y147.493 E215.4092
G1 X79.998 Y89.370 E218.6817
G1 X79.998 Y88.657 E218.7101
G1 X138.121 Y146.780 E221.9826
G1 X138.121 Y146.068 E222.0110
G1 X79.998 Y87.944 E225.2835
G1 X79.998 Y87.232 E225.3119
G1 X138.121 Y145.355 E228.5844
G1 X138.121 Y144.642 E228.6128
G1 X79.998 Y86.519 E231.8853
G1 X79.998 Y85.806 E231.9137
