; G-Code generated by Simplify3D(R) Version 4.1.2
; Oct 30, 2021 at 2:13:29 PM
; Settings Summary
;   processName,Process1
;   applyToModels,irregular box mid section
;   profileName,Ender 3 (modified)
;   profileVersion,2018-06-08 13:27:13
;   baseProfile,Creality CR-10 Mini
;   printMaterial,PLA
;   printQuality,Medium
;   printExtruders,
;   extruderName,Primary Extruder
;   extruderToolheadNumber,0
;   extruderDiameter,0.4
;   extruderAutoWidth,1
;   extruderWidth,0.48
;   extrusionMultiplier,1
;   extruderUseRetract,1
;   extruderRetractionDistance,5
;   extruderExtraRestartDistance,0
;   extruderRetractionZLift,1
;   extruderRetractionSpeed,1800
;   extruderUseCoasting,1
;   extruderCoastingDistance,0.2
;   extruderUseWipe,0
;   extruderWipeDistance,5
;   primaryExtruder,0
;   layerHeight,0.2
;   topSolidLayers,4
;   bottomSolidLayers,4
;   perimeterOutlines,3
;   printPerimetersInsideOut,1
;   startPointOption,3
;   startPointOriginX,0
;   startPointOriginY,110
;   sequentialIslands,0
;   spiralVaseMode,0
;   firstLayerHeightPercentage,95
;   firstLayerWidthPercentage,105
;   firstLayerUnderspeed,0.4
;   useRaft,0
;   raftExtruder,0
;   raftTopLayers,2
;   raftBaseLayers,1
;   raftOffset,3
;   raftSeparationDistance,0.14
;   raftTopInfill,100
;   aboveRaftSpeedMultiplier,0.3
;   useSkirt,1
;   skirtExtruder,0
;   skirtLayers,2
;   skirtOutlines,6
;   skirtOffset,0
;   usePrimePillar,0
;   primePillarExtruder,999
;   primePillarWidth,12
;   primePillarLocation,7
;   primePillarSpeedMultiplier,1
;   useOozeShield,0
;   oozeShieldExtruder,999
;   oozeShieldOffset,2
;   oozeShieldOutlines,1
;   oozeShieldSidewallShape,1
;   oozeShieldSidewallAngle,30
;   oozeShieldSpeedMultiplier,1
;   infillExtruder,0
;   internalInfillPattern,Rectilinear
;   externalInfillPattern,Rectilinear
;   infillPercentage,30
;   outlineOverlapPercentage,15
;   infillExtrusionWidthPercentage,100
;   minInfillLength,5
;   infillLayerInterval,1
;   internalInfillAngles,45,-45
;   overlapInternalInfillAngles,0
;   externalInfillAngles,45,-45
;   generateSupport,1
;   supportExtruder,0
;   supportInfillPercentage,15
;   supportExtraInflation,1
;   supportBaseLayers,2
;   denseSupportExtruder,0
;   denseSupportLayers,2
;   denseSupportInfillPercentage,70
;   supportLayerInterval,1
;   supportHorizontalPartOffset,0.3
;   supportUpperSeparationLayers,1
;   supportLowerSeparationLayers,1
;   supportType,0
;   supportGridSpacing,4
;   maxOverhangAngle,45
;   supportAngles,45
;   temperatureName,Primary Extruder,Heated Bed
;   temperatureNumber,0,0
;   temperatureSetpointCount,2,1
;   temperatureSetpointLayers,1,2,1
;   temperatureSetpointTemperatures,210,195,50
;   temperatureStabilizeAtStartup,1,1
;   temperatureHeatedBed,0,1
;   fanLayers,1,2
;   fanSpeeds,0,100
;   blipFanToFullPower,0
;   adjustSpeedForCooling,1
;   minSpeedLayerTime,15
;   minCoolingSpeedSlowdown,20
;   increaseFanForCooling,0
;   minFanLayerTime,45
;   maxCoolingFanSpeed,100
;   increaseFanForBridging,0
;   bridgingFanSpeed,100
;   use5D,1
;   relativeEdistances,0
;   allowEaxisZeroing,1
;   independentExtruderAxes,0
;   includeM10123,0
;   stickySupport,1
;   applyToolheadOffsets,0
;   gcodeXoffset,0
;   gcodeYoffset,0
;   gcodeZoffset,0
;   overrideMachineDefinition,1
;   machineTypeOverride,0
;   strokeXoverride,220
;   strokeYoverride,220
;   strokeZoverride,250
;   originOffsetXoverride,0
;   originOffsetYoverride,0
;   originOffsetZoverride,0
;   homeXdirOverride,-1
;   homeYdirOverride,-1
;   homeZdirOverride,-1
;   flipXoverride,1
;   flipYoverride,-1
;   flipZoverride,1
;   toolheadOffsets,0,0|0,0|0,0|0,0|0,0|0,0
;   overrideFirmwareConfiguration,1
;   firmwareTypeOverride,RepRap (Marlin/Repetier/Sprinter)
;   GPXconfigOverride,r2
;   baudRateOverride,115200
;   overridePrinterModels,1
;   printerModelsOverride
;   startingGcode,G28 ; home all axes,G1 Z5 F3000 ; lift,G1 X5 Y10 F1500 ; move to prime,G1 Z0.2 F3000 ; get ready to prime,G92 E0 ; reset extrusion distance,G1 Y80 E10 F600 ; prime nozzle,G1 Y100 F5000 ; quick wipe
;   layerChangeGcode,
;   retractionGcode,
;   toolChangeGcode,
;   endingGcode,G28 X0 ; home x axis,M106 S0 ; turn off cooling fan,M104 S0 ; turn off extruder,M140 S0 ; turn off bed,M84 ; disable motors
;   exportFileFormat,gcode
;   celebration,0
;   celebrationSong,Funky Town
;   postProcessing,
;   defaultSpeed,3600
;   outlineUnderspeed,0.5
;   solidInfillUnderspeed,0.8
;   supportUnderspeed,0.8
;   rapidXYspeed,4800
;   rapidZspeed,1002
;   minBridgingArea,50
;   bridgingExtraInflation,0
;   bridgingExtrusionMultiplier,1
;   bridgingSpeedMultiplier,1
;   useFixedBridgingAngle,0
;   fixedBridgingAngle,0
;   applyBridgingToPerimeters,0
;   filamentDiameters,1.75|1.75|1.75|1.75|1.75|1.75
;   filamentPricesPerKg,46|46|46|46|46|46
;   filamentDensities,1.25|1.25|1.25|1.25|1.25|1.25
;   useMinPrintHeight,0
;   minPrintHeight,0
;   useMaxPrintHeight,0
;   maxPrintHeight,0
;   useDiaphragm,0
;   diaphragmLayerInterval,20
;   robustSlicing,1
;   mergeAllIntoSolid,0
;   onlyRetractWhenCrossingOutline,1
;   retractBetweenLayers,1
;   useRetractionMinTravel,0
;   retractionMinTravel,3
;   retractWhileWiping,0
;   onlyWipeOutlines,1
;   avoidCrossingOutline,0
;   maxMovementDetourFactor,3
;   toolChangeRetractionDistance,12
;   toolChangeExtraRestartDistance,-0.5
;   toolChangeRetractionSpeed,600
;   externalThinWallType,0
;   internalThinWallType,2
;   thinWallAllowedOverlapPercentage,10
;   singleExtrusionMinLength,1
;   singleExtrusionMinPrintingWidthPercentage,50
;   singleExtrusionMaxPrintingWidthPercentage,200
;   singleExtrusionEndpointExtension,0.2
;   horizontalSizeCompensation,0
G90
M82
M106 S0
M140 S50
M190 S50
M104 S210 T0
M109 S210 T0
G28 ; home all axes
G1 Z5 F3000 ; lift
G1 X5 Y10 F1500 ; move to prime
G1 Z0.2 F3000 ; get ready to prime
G92 E0 ; reset extrusion distance
G1 Y80 E10 F600 ; prime nozzle
G1 Y100 F5000 ; quick wipe
; process Process1
; layer 1, Z = 0.190
T0
G92 E0.0000
G1 E-5.0000 F1800
; feature skirt
; tool H0.190 W0.504
G1 Z1.000 F1002
G1 X84.070 Y81.469 F4800
G1 Z0.190 F1002
G1 E0.0000 F1800
G92 E0.0000
G1 X84.109 Y71.173 E0.4099 F1440
G1 X85.739 Y69.555 E0.5014
G1 X160.035 Y69.843 E3.4593
G1 X161.653 Y71.473 E3.5507
G1 X161.613 Y81.769 E3.9606
G1 X159.983 Y83.387 E4.0520
G1 X155.607 Y83.370 E4.2263
G1 X155.384 Y140.825 E6.5137
G1 X159.760 Y140.842 E6.6879
G1 X161.378 Y142.472 E6.7794
G1 X161.338 Y152.768 E7.1893
G1 X159.708 Y154.386 E7.2807
G1 X85.412 Y154.099 E10.2386
G1 X83.795 Y152.469 E10.3301
G1 X83.835 Y142.172 E10.7400
G1 X85.465 Y140.555 E10.8314
G1 X89.841 Y140.572 E11.0056
G1 X90.063 Y83.116 E13.2931
G1 X85.687 Y83.099 E13.4673
G1 X84.070 Y81.469 E13.5587
G92 E0.0000
G1 E-5.0000 F1800
G1 Z1.190 F1002
G1 X84.574 Y81.262 F4800
G1 Z0.190 F1002
G1 E0.0000 F1800
G92 E0.0000
G1 X84.613 Y71.383 E0.3933 F1440
G1 X85.946 Y70.060 E0.4681
G1 X159.825 Y70.346 E3.4094
G1 X161.148 Y71.680 E3.4842
G1 X161.110 Y81.558 E3.8775
G1 X159.776 Y82.882 E3.9523
G1 X155.105 Y82.864 E4.1383
G1 X154.878 Y141.327 E6.4659
G1 X159.550 Y141.345 E6.6518
G1 X160.873 Y142.679 E6.7266
G1 X160.835 Y152.558 E7.1199
G1 X159.501 Y153.881 E7.1948
G1 X85.623 Y153.595 E10.1360
G1 X84.300 Y152.262 E10.2108
G1 X84.338 Y142.383 E10.6041
G1 X85.672 Y141.060 E10.6790
G1 X90.343 Y141.078 E10.8649
G1 X90.569 Y82.614 E13.1925
G1 X85.898 Y82.596 E13.3785
G1 X84.574 Y81.262 E13.4533
G92 E0.0000
G1 E-5.0000 F1800
G1 Z1.190 F1002
G1 X85.079 Y81.056 F4800
G1 Z0.190 F1002
G1 E0.0000 F1800
G92 E0.0000
G1 X85.116 Y71.594 E0.3767 F1440
G1 X86.153 Y70.565 E0.4349
G1 X159.614 Y70.849 E3.3595
G1 X160.643 Y71.886 E3.4177
G1 X160.607 Y81.348 E3.7944
G1 X159.569 Y82.377 E3.8526
G1 X154.603 Y82.358 E4.0503
G1 X154.372 Y141.829 E6.4180
G1 X159.339 Y141.849 E6.6157
G1 X160.368 Y142.886 E6.6739
G1 X160.332 Y152.347 E7.0506
G1 X159.295 Y153.376 E7.1088
G1 X85.834 Y153.092 E10.0335
G1 X84.804 Y152.055 E10.0916
G1 X84.841 Y142.594 E10.4683
G1 X85.878 Y141.564 E10.5265
G1 X90.845 Y141.584 E10.7242
G1 X91.075 Y82.112 E13.0920
G1 X86.108 Y82.093 E13.2897
G1 X85.079 Y81.056 E13.3479
G92 E0.0000
G1 E-5.0000 F1800
G1 Z1.190 F1002
G1 X85.584 Y80.849 F4800
G1 Z0.190 F1002
G1 E0.0000 F1800
G92 E0.0000
G1 X85.619 Y71.805 E0.3601 F1440
G1 X86.360 Y71.070 E0.4016
G1 X159.403 Y71.352 E3.3097
G1 X160.138 Y72.093 E3.3512
G1 X160.103 Y81.137 E3.7113
G1 X159.362 Y81.872 E3.7528
G1 X154.101 Y81.852 E3.9623
G1 X153.867 Y142.331 E6.3702
G1 X159.128 Y142.352 E6.5797
G1 X159.864 Y143.093 E6.6212
G1 X159.829 Y152.136 E6.9813
G1 X159.088 Y152.872 E7.0228
G1 X86.045 Y152.589 E9.9309
G1 X85.309 Y151.848 E9.9724
G1 X85.344 Y142.804 E10.3325
G1 X86.085 Y142.069 E10.3740
G1 X91.347 Y142.090 E10.5835
G1 X91.581 Y81.610 E12.9914
G1 X86.319 Y81.590 E13.2009
G1 X85.584 Y80.849 E13.2424
G92 E0.0000
G1 E-5.0000 F1800
G1 Z1.190 F1002
G1 X86.089 Y80.642 F4800
G1 Z0.190 F1002
G1 E0.0000 F1800
G92 E0.0000
G1 X86.122 Y72.016 E0.3434 F1440
G1 X86.567 Y71.575 E0.3684
G1 X159.192 Y71.856 E3.2598
G1 X159.634 Y72.300 E3.2847
G1 X159.600 Y80.926 E3.6282
G1 X159.156 Y81.367 E3.6531
G1 X153.598 Y81.346 E3.8743
G1 X153.361 Y142.833 E6.3223
G1 X158.918 Y142.855 E6.5436
G1 X159.359 Y143.299 E6.5685
G1 X159.325 Y151.926 E6.9119
G1 X158.881 Y152.367 E6.9369
G1 X86.255 Y152.086 E9.8283
G1 X85.814 Y151.641 E9.8532
G1 X85.847 Y143.015 E10.1967
G1 X86.292 Y142.574 E10.2216
G1 X91.849 Y142.595 E10.4428
G1 X92.087 Y81.108 E12.8908
G1 X86.530 Y81.086 E13.1121
G1 X86.089 Y80.642 E13.1370
G92 E0.0000
G1 E-5.0000 F1800
G1 Z1.190 F1002
G1 X86.594 Y80.435 F4800
G1 Z0.190 F1002
G1 E0.0000 F1800
G92 E0.0000
G1 X86.625 Y72.226 E0.3268 F1440
G1 X86.773 Y72.079 E0.3351
G1 X158.982 Y72.359 E3.2099
G1 X159.129 Y72.507 E3.2182
G1 X159.097 Y80.716 E3.5450
G1 X158.949 Y80.863 E3.5534
G1 X153.096 Y80.840 E3.7864
G1 X152.855 Y143.335 E6.2745
G1 X158.707 Y143.358 E6.5075
G1 X158.854 Y143.506 E6.5158
G1 X158.822 Y151.715 E6.8426
G1 X158.674 Y151.862 E6.8509
G1 X86.466 Y151.583 E9.7257
G1 X86.319 Y151.435 E9.7340
G1 X86.351 Y143.226 E10.0608
G1 X86.499 Y143.079 E10.0691
G1 X92.351 Y143.101 E10.3021
G1 X92.593 Y80.606 E12.7902
G1 X86.741 Y80.583 E13.0232
G1 X86.594 Y80.435 E13.0315
G92 E0.0000
G1 E-5.0000 F1800
; feature inner perimeter
G1 Z1.190 F1002
G1 X88.111 Y79.077 F4800
G1 Z0.190 F1002
G1 E0.0000 F1800
G92 E0.0000
G1 X88.116 Y77.784 E0.0515 F1080
G1 X88.492 Y78.155 E0.0725
G1 X89.007 Y78.447 E0.0961
G1 X89.581 Y78.597 E0.1197
G1 X90.175 Y78.592 E0.1433
G1 X90.745 Y78.435 E0.1669
G1 X91.257 Y78.135 E0.1905
G1 X91.673 Y77.713 E0.2141
G1 X91.966 Y77.197 E0.2377
G1 X92.115 Y76.624 E0.2613
G1 X92.111 Y76.031 E0.2849
G1 X91.953 Y75.459 E0.3085
G1 X91.653 Y74.948 E0.3321
G1 X91.231 Y74.532 E0.3557
G1 X90.715 Y74.239 E0.3793
G1 X90.142 Y74.090 E0.4029
G1 X89.549 Y74.094 E0.4265
G1 X88.977 Y74.252 E0.4501
G1 X88.128 Y74.750 E0.4893
G1 X88.132 Y73.597 E0.5352
G1 X93.612 Y73.618 E0.7534
G1 X93.591 Y79.098 E0.9716
G1 X88.311 Y79.077 E1.1818
G1 X88.111 Y79.077 F1080
G92 E0.0000
G1 E-5.0000 F1800
G1 Z1.190 F1002
G1 X152.110 Y79.324 F4800
G1 Z0.190 F1002
G1 E0.0000 F1800
G92 E0.0000
G1 X152.131 Y73.844 E0.2182 F1080
G1 X157.611 Y73.865 E0.4363
G1 X157.607 Y75.103 E0.4856
G1 X157.004 Y74.636 E0.5159
G1 X156.457 Y74.407 E0.5395
G1 X155.870 Y74.328 E0.5631
G1 X155.282 Y74.403 E0.5867
G1 X154.733 Y74.628 E0.6103
G1 X154.261 Y74.987 E0.6339
G1 X153.898 Y75.456 E0.6576
G1 X153.670 Y76.003 E0.6812
G1 X153.590 Y76.590 E0.7048
G1 X153.665 Y77.178 E0.7284
G1 X153.890 Y77.727 E0.7520
G1 X154.249 Y78.198 E0.7756
G1 X154.718 Y78.561 E0.7992
G1 X155.265 Y78.790 E0.8228
G1 X155.852 Y78.870 E0.8464
G1 X156.440 Y78.794 E0.8700
G1 X156.989 Y78.570 E0.8936
G1 X157.595 Y78.108 E0.9239
G1 X157.590 Y79.345 E0.9732
G1 X152.310 Y79.325 E1.1834
G1 X152.110 Y79.324 F1080
G1 X151.857 Y144.844 F4800
G92 E0.0000
G1 X157.337 Y144.865 E0.2182 F1080
G1 X157.332 Y146.102 E0.2674
G1 X156.729 Y145.636 E0.2978
G1 X156.183 Y145.407 E0.3213
G1 X155.596 Y145.327 E0.3449
G1 X155.007 Y145.402 E0.3686
G1 X154.458 Y145.627 E0.3922
G1 X153.987 Y145.986 E0.4158
G1 X153.624 Y146.455 E0.4394
G1 X153.395 Y147.002 E0.4630
G1 X153.315 Y147.589 E0.4866
G1 X153.390 Y148.177 E0.5102
G1 X153.615 Y148.726 E0.5338
G1 X153.974 Y149.198 E0.5574
G1 X154.443 Y149.560 E0.5810
G1 X154.990 Y149.789 E0.6046
G1 X155.577 Y149.869 E0.6282
G1 X156.165 Y149.794 E0.6518
G1 X156.714 Y149.569 E0.6754
G1 X157.320 Y149.108 E0.7057
G1 X157.316 Y150.345 E0.7550
G1 X87.836 Y150.076 E3.5211
G1 X87.841 Y148.922 E3.5671
G1 X88.687 Y149.428 E3.6063
G1 X89.257 Y149.590 E3.6299
G1 X89.850 Y149.598 E3.6535
G1 X90.425 Y149.453 E3.6771
G1 X90.943 Y149.164 E3.7008
G1 X91.368 Y148.752 E3.7243
G1 X91.672 Y148.243 E3.7479
G1 X91.834 Y147.673 E3.7715
G1 X91.842 Y147.080 E3.7951
G1 X91.697 Y146.505 E3.8187
G1 X91.408 Y145.987 E3.8424
G1 X90.996 Y145.562 E3.8659
G1 X90.487 Y145.258 E3.8895
G1 X89.916 Y145.096 E3.9131
G1 X89.324 Y145.087 E3.9367
G1 X88.749 Y145.232 E3.9603
G1 X88.231 Y145.521 E3.9839
G1 X87.852 Y145.889 E4.0050
G1 X87.857 Y144.596 E4.0564
G1 X93.337 Y144.617 E4.2746
G1 X93.330 Y146.617 E4.3542
G1 X151.849 Y146.844 E6.6840
G1 X151.856 Y145.044 E6.7557
G1 X151.857 Y144.844 F1080
G1 X151.843 Y144.340 F4800
G92 E0.0000
G1 X157.843 Y144.363 E0.2389 F1080
G1 X157.818 Y150.851 E0.4972
G1 X87.330 Y150.578 E3.3035
G1 X87.355 Y144.090 E3.5618
G1 X93.355 Y144.113 E3.8006
G1 X93.605 Y79.602 E6.3690
G1 X87.605 Y79.579 E6.6079
G1 X87.630 Y73.091 E6.8662
G1 X158.117 Y73.363 E9.6725
G1 X158.092 Y79.851 E9.9308
G1 X152.092 Y79.828 E10.1697
G1 X151.846 Y143.434 E12.7020
G1 X151.844 Y144.140 E12.7301
G1 X151.843 Y144.340 F1080
; feature outer perimeter
G1 X152.349 Y143.838 F4800
G92 E0.0000
G1 X158.349 Y143.861 E0.2389 F720
G1 X158.320 Y151.357 E0.5373
G1 X86.824 Y151.080 E3.3837
G1 X86.853 Y143.584 E3.6822
G1 X92.853 Y143.607 E3.9210
G1 X93.099 Y80.104 E6.4493
G1 X87.099 Y80.081 E6.6882
G1 X87.128 Y72.585 E6.9866
G1 X158.623 Y72.861 E9.8330
G1 X158.594 Y80.357 E10.1314
G1 X152.594 Y80.334 E10.3703
G1 X152.350 Y143.436 E12.8826
G1 X152.349 Y143.638 E12.8906
G1 X152.349 Y143.838 F720
; feature inner perimeter
G1 X151.347 Y146.338 F4800
G92 E0.0000
G1 X151.628 Y73.826 E2.8869 F1080
G1 X94.116 Y73.604 E5.1766
G1 X93.835 Y146.115 E8.0634
G1 X151.147 Y146.337 E10.3452
G1 X151.347 Y146.338 F1080
; feature outer perimeter
G1 X150.845 Y145.832 F4800
G92 E0.0000
G1 X151.122 Y74.328 E2.8467 F720
G1 X94.618 Y74.110 E5.0963
G1 X94.341 Y145.613 E7.9430
G1 X150.645 Y145.831 E10.1846
G1 X150.845 Y145.832 F720
; feature inner perimeter
G1 X153.885 Y147.135 F4800
G92 E0.0000
G1 X153.824 Y147.591 E0.0183 F1080
G1 X153.882 Y148.048 E0.0366
G1 X154.056 Y148.474 E0.0550
G1 X154.335 Y148.840 E0.0733
G1 X154.699 Y149.121 E0.0916
G1 X155.123 Y149.299 E0.1099
G1 X155.579 Y149.361 E0.1282
G1 X156.036 Y149.302 E0.1465
G1 X156.462 Y149.128 E0.1649
G1 X156.828 Y148.849 E0.1832
G1 X157.109 Y148.485 E0.2015
G1 X157.287 Y148.061 E0.2198
G1 X157.349 Y147.605 E0.2381
G1 X157.290 Y147.149 E0.2564
G1 X157.116 Y146.723 E0.2748
G1 X156.837 Y146.357 E0.2931
G1 X156.473 Y146.075 E0.3114
G1 X156.050 Y145.898 E0.3297
G1 X155.594 Y145.836 E0.3480
G1 X155.137 Y145.894 E0.3664
G1 X154.711 Y146.068 E0.3847
G1 X154.345 Y146.347 E0.4030
G1 X154.063 Y146.711 E0.4213
G1 X153.963 Y146.951 E0.4317
G1 X153.885 Y147.135 F1080
; feature outer perimeter
G1 X154.376 Y147.269 F4800
G92 E0.0000
G1 X154.332 Y147.593 E0.0130 F720
G1 X154.373 Y147.918 E0.0261
G1 X154.498 Y148.221 E0.0391
G1 X154.696 Y148.481 E0.0521
